;Project surface
;Created by Estlcam version 10 build 10.013
;Machining time about 00:36:09 hours

G90
M03 S24000
G00 F800
G01 Z5.0000


;No. 1: Part 10
G01 X13.8224 Y23.8808
G01 Z0.5000
G01 Z-1.5000 F180 S24000
G01 X10.9066 Y22.6248 F1200
G01 X10.7664 Y22.5557
G01 X-0.7160 Y16.3181
G03 X-1.4960 Y15.1096 I0.7160 J-1.3181
G01 X-1.5000 Y14.9800
G01 Y0.0000
G01 X-1.4925 Y-0.1498
G03 X0.0200 Y-1.5000 I1.4928 J0.1499
G01 X8.2500
G03 X9.7500 Y0.0200 I-0.0001 J1.5002
G01 Y9.7500
G01 X13.2500
G01 Y2.9530
G01 Z0.0000
G01 Y0.0000
G01 X13.2575 Y-0.1498
G03 X13.9809 Y-1.2859 I1.4825 J0.1455
G01 Z-1.5000 F180
G03 X14.7700 Y-1.5000 I0.7688 J1.2723 F1200
G01 X27.5000
G03 X29.0000 Y0.0200 I-0.0001 J1.5002
G01 Y9.7500
G01 X32.5000
G01 Y0.0000
G01 X32.5075 Y-0.1498
G03 X34.0200 Y-1.5000 I1.4928 J0.1499
G01 X46.7500
G03 X48.2500 Y0.0200 I-0.0001 J1.5002
G01 Y9.6411
G01 Z0.0000
G01 Y9.7500
G01 X51.7500
G01 Y8.8589
G01 Z-1.5000 F180
G01 Y0.0000 F1200
G01 X51.7575 Y-0.1498
G03 X53.2700 Y-1.5000 I1.4928 J0.1499
G01 X66.0000
G03 X67.5000 Y0.0200 I-0.0001 J1.5002
G01 Y9.7500
G01 X71.0000
G01 Y0.0000
G01 X71.0075 Y-0.1498
G03 X72.5200 Y-1.5000 I1.4928 J0.1499
G01 X85.2500
G03 X86.5575 Y-0.7316 I0.0023 J1.4926
G01 Z0.0000
G03 X86.7500 Y0.0200 I-1.2899 J0.7309
G01 Y3.7351
G01 Z-1.5000 F180
G01 Y9.7500 F1200
G01 X90.2500
G01 Y0.0000
G01 X90.2575 Y-0.1498
G03 X91.7700 Y-1.5000 I1.4928 J0.1499
G01 X100.0000
G03 X101.5000 Y0.0200 I-0.0001 J1.5002
G01 Y15.0000
G03 X100.6984 Y16.3276 I-1.5005 J-0.0002
G01 X89.2160 Y22.5653
G01 X89.0750 Y22.6327
G01 X85.4593 Y24.1902
G01 Z0.0000
G01 X81.3264 Y25.9704
G01 Z-1.5000 F180
G01 X69.8434 Y30.9167 F1200
G03 X69.4713 Y31.0228 I-0.5988 J-1.3946
G01 X50.2411 Y34.1542
G03 X49.7392 Y34.1510 I-0.2414 J-1.4864
G01 X30.5089 Y31.0196
G03 X30.1382 Y30.9088 I0.2457 J-1.4977
G01 X17.9553 Y25.6610
G01 Z0.0000
G01 X13.8224 Y23.8808
G01 Z-1.0000
G01 Z-3.0000 F180
G01 X10.9066 Y22.6248 F1200
G01 X10.7664 Y22.5557
G01 X-0.7160 Y16.3181
G03 X-1.4960 Y15.1096 I0.7160 J-1.3181
G01 X-1.5000 Y14.9800
G01 Y0.0000
G01 X-1.4925 Y-0.1498
G03 X0.0200 Y-1.5000 I1.4928 J0.1499
G01 X8.2500
G03 X9.7500 Y0.0200 I-0.0001 J1.5002
G01 Y9.7500
G01 X13.2500
G01 Y2.9530
G01 Z0.0000
G01 Y0.0000
G01 X13.2575 Y-0.1498
G03 X13.9809 Y-1.2859 I1.4825 J0.1455
G01 Z-1.0000
G01 Z-3.0000 F180
G03 X14.7700 Y-1.5000 I0.7688 J1.2723 F1200
G01 X27.5000
G03 X29.0000 Y0.0200 I-0.0001 J1.5002
G01 Y9.7500
G01 X32.5000
G01 Y0.0000
G01 X32.5075 Y-0.1498
G03 X34.0200 Y-1.5000 I1.4928 J0.1499
G01 X46.7500
G03 X48.2500 Y0.0200 I-0.0001 J1.5002
G01 Y9.6411
G01 Z0.0000
G01 Y9.7500
G01 X51.7500
G01 Y8.8589
G01 Z-1.0000
G01 Z-3.0000 F180
G01 Y0.0000 F1200
G01 X51.7575 Y-0.1498
G03 X53.2700 Y-1.5000 I1.4928 J0.1499
G01 X66.0000
G03 X67.5000 Y0.0200 I-0.0001 J1.5002
G01 Y9.7500
G01 X71.0000
G01 Y0.0000
G01 X71.0075 Y-0.1498
G03 X72.5200 Y-1.5000 I1.4928 J0.1499
G01 X85.2500
G03 X86.5575 Y-0.7316 I0.0023 J1.4926
G01 Z0.0000
G03 X86.7500 Y0.0200 I-1.2899 J0.7309
G01 Y3.7351
G01 Z-1.0000
G01 Z-3.0000 F180
G01 Y9.7500 F1200
G01 X90.2500
G01 Y0.0000
G01 X90.2575 Y-0.1498
G03 X91.7700 Y-1.5000 I1.4928 J0.1499
G01 X100.0000
G03 X101.5000 Y0.0200 I-0.0001 J1.5002
G01 Y15.0000
G03 X100.6984 Y16.3276 I-1.5005 J-0.0002
G01 X89.2160 Y22.5653
G01 X89.0750 Y22.6327
G01 X85.4593 Y24.1902
G01 Z0.0000
G01 X81.3264 Y25.9704
G01 Z-1.0000
G01 Z-3.0000 F180
G01 X69.8434 Y30.9167 F1200
G03 X69.4713 Y31.0228 I-0.5988 J-1.3946
G01 X50.2411 Y34.1542
G03 X49.7392 Y34.1510 I-0.2414 J-1.4864
G01 X30.5089 Y31.0196
G03 X30.1382 Y30.9088 I0.2457 J-1.4977
G01 X17.9553 Y25.6610
G01 Z0.0000
G01 X13.8224 Y23.8808
G01 Z-2.5000
G01 Z-4.5000 F180
G01 X10.9066 Y22.6248 F1200
G01 X10.7664 Y22.5557
G01 X-0.7160 Y16.3181
G03 X-1.4960 Y15.1096 I0.7160 J-1.3181
G01 X-1.5000 Y14.9800
G01 Y0.0000
G01 X-1.4925 Y-0.1498
G03 X0.0200 Y-1.5000 I1.4928 J0.1499
G01 X8.2500
G03 X9.7500 Y0.0200 I-0.0001 J1.5002
G01 Y9.7500
G01 X13.2500
G01 Y2.9530
G01 Z0.0000
G01 Y0.0000
G01 X13.2575 Y-0.1498
G03 X13.9809 Y-1.2859 I1.4825 J0.1455
G01 Z-2.5000
G01 Z-4.5000 F180
G03 X14.7700 Y-1.5000 I0.7688 J1.2723 F1200
G01 X27.5000
G03 X29.0000 Y0.0200 I-0.0001 J1.5002
G01 Y9.7500
G01 X32.5000
G01 Y0.0000
G01 X32.5075 Y-0.1498
G03 X34.0200 Y-1.5000 I1.4928 J0.1499
G01 X46.7500
G03 X48.2500 Y0.0200 I-0.0001 J1.5002
G01 Y9.6411
G01 Z0.0000
G01 Y9.7500
G01 X51.7500
G01 Y8.8589
G01 Z-2.5000
G01 Z-4.5000 F180
G01 Y0.0000 F1200
G01 X51.7575 Y-0.1498
G03 X53.2700 Y-1.5000 I1.4928 J0.1499
G01 X66.0000
G03 X67.5000 Y0.0200 I-0.0001 J1.5002
G01 Y9.7500
G01 X71.0000
G01 Y0.0000
G01 X71.0075 Y-0.1498
G03 X72.5200 Y-1.5000 I1.4928 J0.1499
G01 X85.2500
G03 X86.5575 Y-0.7316 I0.0023 J1.4926
G01 Z0.0000
G03 X86.7500 Y0.0200 I-1.2899 J0.7309
G01 Y3.7351
G01 Z-2.5000
G01 Z-4.5000 F180
G01 Y9.7500 F1200
G01 X90.2500
G01 Y0.0000
G01 X90.2575 Y-0.1498
G03 X91.7700 Y-1.5000 I1.4928 J0.1499
G01 X100.0000
G03 X101.5000 Y0.0200 I-0.0001 J1.5002
G01 Y15.0000
G03 X100.6984 Y16.3276 I-1.5005 J-0.0002
G01 X89.2160 Y22.5653
G01 X89.0750 Y22.6327
G01 X85.4593 Y24.1902
G01 Z0.0000
G01 X81.3264 Y25.9704
G01 Z-2.5000
G01 Z-4.5000 F180
G01 X69.8434 Y30.9167 F1200
G03 X69.4713 Y31.0228 I-0.5988 J-1.3946
G01 X50.2411 Y34.1542
G03 X49.7392 Y34.1510 I-0.2414 J-1.4864
G01 X30.5089 Y31.0196
G03 X30.1382 Y30.9088 I0.2457 J-1.4977
G01 X17.9553 Y25.6610
G01 Z0.0000
G01 X13.8224 Y23.8808
G01 Z-4.0000
G01 Z-6.0000 F180
G01 X10.9066 Y22.6248 F1200
G01 X10.7664 Y22.5557
G01 X-0.7160 Y16.3181
G03 X-1.4960 Y15.1096 I0.7160 J-1.3181
G01 X-1.5000 Y14.9800
G01 Y0.0000
G01 X-1.4925 Y-0.1498
G03 X0.0200 Y-1.5000 I1.4928 J0.1499
G01 X8.2500
G03 X9.7500 Y0.0200 I-0.0001 J1.5002
G01 Y9.7500
G01 X13.2500
G01 Y2.9530
G01 Z0.0000
G01 Y0.0000
G01 X13.2575 Y-0.1498
G03 X13.9809 Y-1.2859 I1.4825 J0.1455
G01 Z-4.0000
G01 Z-6.0000 F180
G03 X14.7700 Y-1.5000 I0.7688 J1.2723 F1200
G01 X27.5000
G03 X29.0000 Y0.0200 I-0.0001 J1.5002
G01 Y9.7500
G01 X32.5000
G01 Y0.0000
G01 X32.5075 Y-0.1498
G03 X34.0200 Y-1.5000 I1.4928 J0.1499
G01 X46.7500
G03 X48.2500 Y0.0200 I-0.0001 J1.5002
G01 Y9.6411
G01 Z0.0000
G01 Y9.7500
G01 X51.7500
G01 Y8.8589
G01 Z-4.0000
G01 Z-6.0000 F180
G01 Y0.0000 F1200
G01 X51.7575 Y-0.1498
G03 X53.2700 Y-1.5000 I1.4928 J0.1499
G01 X66.0000
G03 X67.5000 Y0.0200 I-0.0001 J1.5002
G01 Y9.7500
G01 X71.0000
G01 Y0.0000
G01 X71.0075 Y-0.1498
G03 X72.5200 Y-1.5000 I1.4928 J0.1499
G01 X85.2500
G03 X86.5575 Y-0.7316 I0.0023 J1.4926
G01 Z0.0000
G03 X86.7500 Y0.0200 I-1.2899 J0.7309
G01 Y3.7351
G01 Z-4.0000
G01 Z-6.0000 F180
G01 Y9.7500 F1200
G01 X90.2500
G01 Y0.0000
G01 X90.2575 Y-0.1498
G03 X91.7700 Y-1.5000 I1.4928 J0.1499
G01 X100.0000
G03 X101.5000 Y0.0200 I-0.0001 J1.5002
G01 Y15.0000
G03 X100.6984 Y16.3276 I-1.5005 J-0.0002
G01 X89.2160 Y22.5653
G01 X89.0750 Y22.6327
G01 X85.4593 Y24.1902
G01 Z0.0000
G01 X81.3264 Y25.9704
G01 Z-4.0000
G01 Z-6.0000 F180
G01 X69.8434 Y30.9167 F1200
G03 X69.4713 Y31.0228 I-0.5988 J-1.3946
G01 X50.2411 Y34.1542
G03 X49.7392 Y34.1510 I-0.2414 J-1.4864
G01 X30.5089 Y31.0196
G03 X30.1382 Y30.9088 I0.2457 J-1.4977
G01 X17.9553 Y25.6610
G01 Z0.0000
G01 X13.8224 Y23.8808
G01 Z-5.5000
G01 Z-7.0000 F180
G01 X10.9066 Y22.6248 F1200
G01 X10.7664 Y22.5557
G01 X-0.7160 Y16.3181
G03 X-1.4960 Y15.1096 I0.7160 J-1.3181
G01 X-1.5000 Y14.9800
G01 Y0.0000
G01 X-1.4925 Y-0.1498
G03 X0.0200 Y-1.5000 I1.4928 J0.1499
G01 X8.2500
G03 X9.7500 Y0.0200 I-0.0001 J1.5002
G01 Y9.7500
G01 X13.2500
G01 Y2.9530
G01 Z0.0000
G01 Y0.0000
G01 X13.2575 Y-0.1498
G03 X13.9809 Y-1.2859 I1.4825 J0.1455
G01 Z-5.5000
G01 Z-7.0000 F180
G03 X14.7700 Y-1.5000 I0.7688 J1.2723 F1200
G01 X27.5000
G03 X29.0000 Y0.0200 I-0.0001 J1.5002
G01 Y9.7500
G01 X32.5000
G01 Y0.0000
G01 X32.5075 Y-0.1498
G03 X34.0200 Y-1.5000 I1.4928 J0.1499
G01 X46.7500
G03 X48.2500 Y0.0200 I-0.0001 J1.5002
G01 Y9.6411
G01 Z0.0000
G01 Y9.7500
G01 X51.7500
G01 Y8.8589
G01 Z-5.5000
G01 Z-7.0000 F180
G01 Y0.0000 F1200
G01 X51.7575 Y-0.1498
G03 X53.2700 Y-1.5000 I1.4928 J0.1499
G01 X66.0000
G03 X67.5000 Y0.0200 I-0.0001 J1.5002
G01 Y9.7500
G01 X71.0000
G01 Y0.0000
G01 X71.0075 Y-0.1498
G03 X72.5200 Y-1.5000 I1.4928 J0.1499
G01 X85.2500
G03 X86.5575 Y-0.7316 I0.0023 J1.4926
G01 Z0.0000
G03 X86.7500 Y0.0200 I-1.2899 J0.7309
G01 Y3.7351
G01 Z-5.5000
G01 Z-7.0000 F180
G01 Y9.7500 F1200
G01 X90.2500
G01 Y0.0000
G01 X90.2575 Y-0.1498
G03 X91.7700 Y-1.5000 I1.4928 J0.1499
G01 X100.0000
G03 X101.5000 Y0.0200 I-0.0001 J1.5002
G01 Y15.0000
G03 X100.6984 Y16.3276 I-1.5005 J-0.0002
G01 X89.2160 Y22.5653
G01 X89.0750 Y22.6327
G01 X85.4593 Y24.1902
G01 Z0.0000
G01 X81.3264 Y25.9704
G01 Z-5.5000
G01 Z-7.0000 F180
G01 X69.8434 Y30.9167 F1200
G03 X69.4713 Y31.0228 I-0.5988 J-1.3946
G01 X50.2411 Y34.1542
G03 X49.7392 Y34.1510 I-0.2414 J-1.4864
G01 X30.5089 Y31.0196
G03 X30.1382 Y30.9088 I0.2457 J-1.4977
G01 X17.9553 Y25.6610
G01 Z0.0000
G01 X13.8224 Y23.8808
G01 Z5.0000


;No. 2: Part 8
G01 X11.0455 Y68.8813 Z5.0000
G01 Z0.5000
G01 Z-1.5000 F180
G01 X10.4380 Y68.2722 F1200
G01 X10.3376 Y68.1609
G01 X-1.1765 Y53.6042
G03 X-1.4964 Y52.7774 I1.1765 J-0.9305
G01 X-1.5000 Y52.6537
G01 Y37.6737
G01 X-1.4925 Y37.5239
G03 X0.0200 Y36.1737 I1.4928 J0.1499
G01 X8.2500
G03 X9.7500 Y37.6937 I-0.0001 J1.5002
G01 Y47.4237
G01 X13.2500
G01 Y38.0607
G01 Z0.0000
G01 Y37.6737
G01 X13.2575 Y37.5239
G03 X14.7700 Y36.1737 I1.4928 J0.1499
G01 X16.5078
G01 Z-1.5000 F180
G01 X27.5000 F1200
G03 X29.0000 Y37.6937 I-0.0001 J1.5002
G01 Y47.4237
G01 X32.5000
G01 Y37.6737
G01 X32.5075 Y37.5239
G03 X34.0200 Y36.1737 I1.4928 J0.1499
G01 X46.7500
G03 X48.2500 Y37.6937 I-0.0001 J1.5002
G01 Y47.4237
G01 X51.7500
G01 Y43.3346
G01 Z0.0000
G01 Y38.8346
G01 Z-1.5000 F180
G01 Y37.6737 F1200
G01 X51.7575 Y37.5239
G03 X53.2700 Y36.1737 I1.4928 J0.1499
G01 X66.0000
G03 X67.5000 Y37.6937 I-0.0001 J1.5002
G01 Y47.4237
G01 X71.0000
G01 Y37.6737
G01 X71.0075 Y37.5239
G03 X72.5200 Y36.1737 I1.4928 J0.1499
G01 X85.2500
G03 X86.7500 Y37.6937 I-0.0001 J1.5002
G01 Y47.4237
G01 X89.0652
G01 Z0.0000
G01 X90.2500
G01 Y44.1085
G01 Z-1.5000 F180
G01 Y37.6737 F1200
G01 X90.2575 Y37.5239
G03 X91.7700 Y36.1737 I1.4928 J0.1499
G01 X100.0000
G03 X101.5000 Y37.6937 I-0.0001 J1.5002
G01 Y52.6737
G03 X101.1641 Y53.6199 I-1.5014 J-0.0003
G01 X89.6765 Y68.1434
G01 X89.5777 Y68.2562
G01 X89.5478 Y68.2864
G01 X77.5289 Y80.3351
G01 Z0.0000
G01 X74.3509 Y83.5211
G01 Z-1.5000 F180
G01 X70.3120 Y87.5699 F1200
G03 X69.7629 Y87.9203 I-1.0646 J-1.0629
G01 X50.5316 Y95.2085
G03 X49.4497 Y95.2014 I-0.5317 J-1.4037
G01 X30.2184 Y87.9133
G03 X29.6739 Y87.5558 I0.5338 J-1.4066
G01 X14.2236 Y72.0672
G01 Z0.0000
G01 X11.0455 Y68.8813
G01 Z-1.0000
G01 Z-3.0000 F180
G01 X10.4380 Y68.2722 F1200
G01 X10.3376 Y68.1609
G01 X-1.1765 Y53.6042
G03 X-1.4964 Y52.7774 I1.1765 J-0.9305
G01 X-1.5000 Y52.6537
G01 Y37.6737
G01 X-1.4925 Y37.5239
G03 X0.0200 Y36.1737 I1.4928 J0.1499
G01 X8.2500
G03 X9.7500 Y37.6937 I-0.0001 J1.5002
G01 Y47.4237
G01 X13.2500
G01 Y38.0607
G01 Z0.0000
G01 Y37.6737
G01 X13.2575 Y37.5239
G03 X14.7700 Y36.1737 I1.4928 J0.1499
G01 X16.5078
G01 Z-1.0000
G01 Z-3.0000 F180
G01 X27.5000 F1200
G03 X29.0000 Y37.6937 I-0.0001 J1.5002
G01 Y47.4237
G01 X32.5000
G01 Y37.6737
G01 X32.5075 Y37.5239
G03 X34.0200 Y36.1737 I1.4928 J0.1499
G01 X46.7500
G03 X48.2500 Y37.6937 I-0.0001 J1.5002
G01 Y47.4237
G01 X51.7500
G01 Y43.3346
G01 Z0.0000
G01 Y38.8346
G01 Z-1.0000
G01 Z-3.0000 F180
G01 Y37.6737 F1200
G01 X51.7575 Y37.5239
G03 X53.2700 Y36.1737 I1.4928 J0.1499
G01 X66.0000
G03 X67.5000 Y37.6937 I-0.0001 J1.5002
G01 Y47.4237
G01 X71.0000
G01 Y37.6737
G01 X71.0075 Y37.5239
G03 X72.5200 Y36.1737 I1.4928 J0.1499
G01 X85.2500
G03 X86.7500 Y37.6937 I-0.0001 J1.5002
G01 Y47.4237
G01 X89.0652
G01 Z0.0000
G01 X90.2500
G01 Y44.1085
G01 Z-1.0000
G01 Z-3.0000 F180
G01 Y37.6737 F1200
G01 X90.2575 Y37.5239
G03 X91.7700 Y36.1737 I1.4928 J0.1499
G01 X100.0000
G03 X101.5000 Y37.6937 I-0.0001 J1.5002
G01 Y52.6737
G03 X101.1641 Y53.6199 I-1.5014 J-0.0003
G01 X89.6765 Y68.1434
G01 X89.5777 Y68.2562
G01 X89.5478 Y68.2864
G01 X77.5289 Y80.3351
G01 Z0.0000
G01 X74.3509 Y83.5211
G01 Z-1.0000
G01 Z-3.0000 F180
G01 X70.3120 Y87.5699 F1200
G03 X69.7629 Y87.9203 I-1.0646 J-1.0629
G01 X50.5316 Y95.2085
G03 X49.4497 Y95.2014 I-0.5317 J-1.4037
G01 X30.2184 Y87.9133
G03 X29.6739 Y87.5558 I0.5338 J-1.4066
G01 X14.2236 Y72.0672
G01 Z0.0000
G01 X11.0455 Y68.8813
G01 Z-2.5000
G01 Z-4.5000 F180
G01 X10.4380 Y68.2722 F1200
G01 X10.3376 Y68.1609
G01 X-1.1765 Y53.6042
G03 X-1.4964 Y52.7774 I1.1765 J-0.9305
G01 X-1.5000 Y52.6537
G01 Y37.6737
G01 X-1.4925 Y37.5239
G03 X0.0200 Y36.1737 I1.4928 J0.1499
G01 X8.2500
G03 X9.7500 Y37.6937 I-0.0001 J1.5002
G01 Y47.4237
G01 X13.2500
G01 Y38.0607
G01 Z0.0000
G01 Y37.6737
G01 X13.2575 Y37.5239
G03 X14.7700 Y36.1737 I1.4928 J0.1499
G01 X16.5078
G01 Z-2.5000
G01 Z-4.5000 F180
G01 X27.5000 F1200
G03 X29.0000 Y37.6937 I-0.0001 J1.5002
G01 Y47.4237
G01 X32.5000
G01 Y37.6737
G01 X32.5075 Y37.5239
G03 X34.0200 Y36.1737 I1.4928 J0.1499
G01 X46.7500
G03 X48.2500 Y37.6937 I-0.0001 J1.5002
G01 Y47.4237
G01 X51.7500
G01 Y43.3346
G01 Z0.0000
G01 Y38.8346
G01 Z-2.5000
G01 Z-4.5000 F180
G01 Y37.6737 F1200
G01 X51.7575 Y37.5239
G03 X53.2700 Y36.1737 I1.4928 J0.1499
G01 X66.0000
G03 X67.5000 Y37.6937 I-0.0001 J1.5002
G01 Y47.4237
G01 X71.0000
G01 Y37.6737
G01 X71.0075 Y37.5239
G03 X72.5200 Y36.1737 I1.4928 J0.1499
G01 X85.2500
G03 X86.7500 Y37.6937 I-0.0001 J1.5002
G01 Y47.4237
G01 X89.0652
G01 Z0.0000
G01 X90.2500
G01 Y44.1085
G01 Z-2.5000
G01 Z-4.5000 F180
G01 Y37.6737 F1200
G01 X90.2575 Y37.5239
G03 X91.7700 Y36.1737 I1.4928 J0.1499
G01 X100.0000
G03 X101.5000 Y37.6937 I-0.0001 J1.5002
G01 Y52.6737
G03 X101.1641 Y53.6199 I-1.5014 J-0.0003
G01 X89.6765 Y68.1434
G01 X89.5777 Y68.2562
G01 X89.5478 Y68.2864
G01 X77.5289 Y80.3351
G01 Z0.0000
G01 X74.3509 Y83.5211
G01 Z-2.5000
G01 Z-4.5000 F180
G01 X70.3120 Y87.5699 F1200
G03 X69.7629 Y87.9203 I-1.0646 J-1.0629
G01 X50.5316 Y95.2085
G03 X49.4497 Y95.2014 I-0.5317 J-1.4037
G01 X30.2184 Y87.9133
G03 X29.6739 Y87.5558 I0.5338 J-1.4066
G01 X14.2236 Y72.0672
G01 Z0.0000
G01 X11.0455 Y68.8813
G01 Z-4.0000
G01 Z-6.0000 F180
G01 X10.4380 Y68.2722 F1200
G01 X10.3376 Y68.1609
G01 X-1.1765 Y53.6042
G03 X-1.4964 Y52.7774 I1.1765 J-0.9305
G01 X-1.5000 Y52.6537
G01 Y37.6737
G01 X-1.4925 Y37.5239
G03 X0.0200 Y36.1737 I1.4928 J0.1499
G01 X8.2500
G03 X9.7500 Y37.6937 I-0.0001 J1.5002
G01 Y47.4237
G01 X13.2500
G01 Y38.0607
G01 Z0.0000
G01 Y37.6737
G01 X13.2575 Y37.5239
G03 X14.7700 Y36.1737 I1.4928 J0.1499
G01 X16.5078
G01 Z-4.0000
G01 Z-6.0000 F180
G01 X27.5000 F1200
G03 X29.0000 Y37.6937 I-0.0001 J1.5002
G01 Y47.4237
G01 X32.5000
G01 Y37.6737
G01 X32.5075 Y37.5239
G03 X34.0200 Y36.1737 I1.4928 J0.1499
G01 X46.7500
G03 X48.2500 Y37.6937 I-0.0001 J1.5002
G01 Y47.4237
G01 X51.7500
G01 Y43.3346
G01 Z0.0000
G01 Y38.8346
G01 Z-4.0000
G01 Z-6.0000 F180
G01 Y37.6737 F1200
G01 X51.7575 Y37.5239
G03 X53.2700 Y36.1737 I1.4928 J0.1499
G01 X66.0000
G03 X67.5000 Y37.6937 I-0.0001 J1.5002
G01 Y47.4237
G01 X71.0000
G01 Y37.6737
G01 X71.0075 Y37.5239
G03 X72.5200 Y36.1737 I1.4928 J0.1499
G01 X85.2500
G03 X86.7500 Y37.6937 I-0.0001 J1.5002
G01 Y47.4237
G01 X89.0652
G01 Z0.0000
G01 X90.2500
G01 Y44.1085
G01 Z-4.0000
G01 Z-6.0000 F180
G01 Y37.6737 F1200
G01 X90.2575 Y37.5239
G03 X91.7700 Y36.1737 I1.4928 J0.1499
G01 X100.0000
G03 X101.5000 Y37.6937 I-0.0001 J1.5002
G01 Y52.6737
G03 X101.1641 Y53.6199 I-1.5014 J-0.0003
G01 X89.6765 Y68.1434
G01 X89.5777 Y68.2562
G01 X89.5478 Y68.2864
G01 X77.5289 Y80.3351
G01 Z0.0000
G01 X74.3509 Y83.5211
G01 Z-4.0000
G01 Z-6.0000 F180
G01 X70.3120 Y87.5699 F1200
G03 X69.7629 Y87.9203 I-1.0646 J-1.0629
G01 X50.5316 Y95.2085
G03 X49.4497 Y95.2014 I-0.5317 J-1.4037
G01 X30.2184 Y87.9133
G03 X29.6739 Y87.5558 I0.5338 J-1.4066
G01 X14.2236 Y72.0672
G01 Z0.0000
G01 X11.0455 Y68.8813
G01 Z-5.5000
G01 Z-7.0000 F180
G01 X10.4380 Y68.2722 F1200
G01 X10.3376 Y68.1609
G01 X-1.1765 Y53.6042
G03 X-1.4964 Y52.7774 I1.1765 J-0.9305
G01 X-1.5000 Y52.6537
G01 Y37.6737
G01 X-1.4925 Y37.5239
G03 X0.0200 Y36.1737 I1.4928 J0.1499
G01 X8.2500
G03 X9.7500 Y37.6937 I-0.0001 J1.5002
G01 Y47.4237
G01 X13.2500
G01 Y38.0607
G01 Z0.0000
G01 Y37.6737
G01 X13.2575 Y37.5239
G03 X14.7700 Y36.1737 I1.4928 J0.1499
G01 X16.5078
G01 Z-5.5000
G01 Z-7.0000 F180
G01 X27.5000 F1200
G03 X29.0000 Y37.6937 I-0.0001 J1.5002
G01 Y47.4237
G01 X32.5000
G01 Y37.6737
G01 X32.5075 Y37.5239
G03 X34.0200 Y36.1737 I1.4928 J0.1499
G01 X46.7500
G03 X48.2500 Y37.6937 I-0.0001 J1.5002
G01 Y47.4237
G01 X51.7500
G01 Y43.3346
G01 Z0.0000
G01 Y38.8346
G01 Z-5.5000
G01 Z-7.0000 F180
G01 Y37.6737 F1200
G01 X51.7575 Y37.5239
G03 X53.2700 Y36.1737 I1.4928 J0.1499
G01 X66.0000
G03 X67.5000 Y37.6937 I-0.0001 J1.5002
G01 Y47.4237
G01 X71.0000
G01 Y37.6737
G01 X71.0075 Y37.5239
G03 X72.5200 Y36.1737 I1.4928 J0.1499
G01 X85.2500
G03 X86.7500 Y37.6937 I-0.0001 J1.5002
G01 Y47.4237
G01 X89.0652
G01 Z0.0000
G01 X90.2500
G01 Y44.1085
G01 Z-5.5000
G01 Z-7.0000 F180
G01 Y37.6737 F1200
G01 X90.2575 Y37.5239
G03 X91.7700 Y36.1737 I1.4928 J0.1499
G01 X100.0000
G03 X101.5000 Y37.6937 I-0.0001 J1.5002
G01 Y52.6737
G03 X101.1641 Y53.6199 I-1.5014 J-0.0003
G01 X89.6765 Y68.1434
G01 X89.5777 Y68.2562
G01 X89.5478 Y68.2864
G01 X77.5289 Y80.3351
G01 Z0.0000
G01 X74.3509 Y83.5211
G01 Z-5.5000
G01 Z-7.0000 F180
G01 X70.3120 Y87.5699 F1200
G03 X69.7629 Y87.9203 I-1.0646 J-1.0629
G01 X50.5316 Y95.2085
G03 X49.4497 Y95.2014 I-0.5317 J-1.4037
G01 X30.2184 Y87.9133
G03 X29.6739 Y87.5558 I0.5338 J-1.4066
G01 X14.2236 Y72.0672
G01 Z0.0000
G01 X11.0455 Y68.8813
G01 Z5.0000


;No. 3: Part 6
G01 X10.1731 Y132.1901 Z5.0000
G01 Z0.5000
G01 Z-1.5000 F180
G01 X-1.2573 Y114.6241 F1200
G03 X-1.4956 Y113.9212 I1.2573 J-0.8181
G01 X-1.5000 Y113.7860
G01 Y98.8058
G01 X-1.4925 Y98.6560
G03 X0.0200 Y97.3058 I1.4928 J0.1499
G01 X8.2500
G03 X9.7500 Y98.8258 I-0.0001 J1.5002
G01 Y108.5560
G01 X13.2500
G01 Y98.8058
G01 X13.2575 Y98.6560
G03 X13.4923 Y97.9910 I1.4599 J0.1414
G01 Z0.0000
G03 X14.7700 Y97.3058 I1.2569 J0.8097
G01 X17.7566
G01 Z-1.5000 F180
G01 X27.5000 F1200
G03 X29.0000 Y98.8258 I-0.0001 J1.5002
G01 Y108.5560
G01 X32.5000
G01 Y98.8058
G01 X32.5075 Y98.6560
G03 X34.0200 Y97.3058 I1.4928 J0.1499
G01 X46.7500
G03 X48.2500 Y98.8258 I-0.0001 J1.5002
G01 Y108.5560
G01 X51.7500
G01 Y100.7202
G01 Z0.0000
G01 Y98.8058
G01 X51.7575 Y98.6560
G03 X53.4804 Y97.3058 I1.5194 J0.1645
G01 Z-1.5000 F180
G01 X66.0000 F1200
G03 X67.5000 Y98.8258 I-0.0001 J1.5002
G01 Y108.5560
G01 X71.0000
G01 Y98.8058
G01 X71.0075 Y98.6560
G03 X72.5200 Y97.3058 I1.4928 J0.1499
G01 X85.2500
G03 X86.7500 Y98.8258 I-0.0001 J1.5002
G01 Y108.5560
G01 X90.2500
G01 Y103.4965
G01 Z0.0000
G01 Y98.9965
G01 Z-1.5000 F180
G01 Y98.8058 F1200
G01 X90.2575 Y98.6560
G03 X91.7700 Y97.3058 I1.4928 J0.1499
G01 X100.0000
G03 X101.5000 Y98.8258 I-0.0001 J1.5002
G01 Y113.8060
G03 X101.2463 Y114.6409 I-1.5024 J-0.0005
G01 X89.7573 Y132.2971
G01 X89.6693 Y132.4185
G01 X74.8294 Y150.5032
G01 Z0.0000
G01 X71.9749 Y153.9820
G01 Z-1.5000 F180
G01 X70.4096 Y155.8895 F1200
G03 X69.8595 Y156.3088 I-1.1619 J-0.9541
G01 X50.6276 Y165.1684
G03 X49.3542 Y165.1600 I-0.6278 J-1.3632
G01 X30.1224 Y156.3004
G03 X29.5777 Y155.8741 I0.6295 J-1.3653
G01 X13.0091 Y135.6827
G01 Z0.0000
G01 X10.3404 Y132.4305
G03 X10.1731 Y132.1901 I2.3575 J-1.8191
G01 Z-1.0000
G01 Z-3.0000 F180
G01 X-1.2573 Y114.6241 F1200
G03 X-1.4956 Y113.9212 I1.2573 J-0.8181
G01 X-1.5000 Y113.7860
G01 Y98.8058
G01 X-1.4925 Y98.6560
G03 X0.0200 Y97.3058 I1.4928 J0.1499
G01 X8.2500
G03 X9.7500 Y98.8258 I-0.0001 J1.5002
G01 Y108.5560
G01 X13.2500
G01 Y98.8058
G01 X13.2575 Y98.6560
G03 X13.4923 Y97.9910 I1.4599 J0.1414
G01 Z0.0000
G03 X14.7700 Y97.3058 I1.2569 J0.8097
G01 X17.7566
G01 Z-1.0000
G01 Z-3.0000 F180
G01 X27.5000 F1200
G03 X29.0000 Y98.8258 I-0.0001 J1.5002
G01 Y108.5560
G01 X32.5000
G01 Y98.8058
G01 X32.5075 Y98.6560
G03 X34.0200 Y97.3058 I1.4928 J0.1499
G01 X46.7500
G03 X48.2500 Y98.8258 I-0.0001 J1.5002
G01 Y108.5560
G01 X51.7500
G01 Y100.7202
G01 Z0.0000
G01 Y98.8058
G01 X51.7575 Y98.6560
G03 X53.4804 Y97.3058 I1.5194 J0.1645
G01 Z-1.0000
G01 Z-3.0000 F180
G01 X66.0000 F1200
G03 X67.5000 Y98.8258 I-0.0001 J1.5002
G01 Y108.5560
G01 X71.0000
G01 Y98.8058
G01 X71.0075 Y98.6560
G03 X72.5200 Y97.3058 I1.4928 J0.1499
G01 X85.2500
G03 X86.7500 Y98.8258 I-0.0001 J1.5002
G01 Y108.5560
G01 X90.2500
G01 Y103.4965
G01 Z0.0000
G01 Y98.9965
G01 Z-1.0000
G01 Z-3.0000 F180
G01 Y98.8058 F1200
G01 X90.2575 Y98.6560
G03 X91.7700 Y97.3058 I1.4928 J0.1499
G01 X100.0000
G03 X101.5000 Y98.8258 I-0.0001 J1.5002
G01 Y113.8060
G03 X101.2463 Y114.6409 I-1.5024 J-0.0005
G01 X89.7573 Y132.2971
G01 X89.6693 Y132.4185
G01 X74.8294 Y150.5032
G01 Z0.0000
G01 X71.9749 Y153.9820
G01 Z-1.0000
G01 Z-3.0000 F180
G01 X70.4096 Y155.8895 F1200
G03 X69.8595 Y156.3088 I-1.1619 J-0.9541
G01 X50.6276 Y165.1684
G03 X49.3542 Y165.1600 I-0.6278 J-1.3632
G01 X30.1224 Y156.3004
G03 X29.5777 Y155.8741 I0.6295 J-1.3653
G01 X13.0091 Y135.6827
G01 Z0.0000
G01 X10.3404 Y132.4305
G03 X10.1731 Y132.1901 I2.3575 J-1.8191
G01 Z-2.5000
G01 Z-4.5000 F180
G01 X-1.2573 Y114.6241 F1200
G03 X-1.4956 Y113.9212 I1.2573 J-0.8181
G01 X-1.5000 Y113.7860
G01 Y98.8058
G01 X-1.4925 Y98.6560
G03 X0.0200 Y97.3058 I1.4928 J0.1499
G01 X8.2500
G03 X9.7500 Y98.8258 I-0.0001 J1.5002
G01 Y108.5560
G01 X13.2500
G01 Y98.8058
G01 X13.2575 Y98.6560
G03 X13.4923 Y97.9910 I1.4599 J0.1414
G01 Z0.0000
G03 X14.7700 Y97.3058 I1.2569 J0.8097
G01 X17.7566
G01 Z-2.5000
G01 Z-4.5000 F180
G01 X27.5000 F1200
G03 X29.0000 Y98.8258 I-0.0001 J1.5002
G01 Y108.5560
G01 X32.5000
G01 Y98.8058
G01 X32.5075 Y98.6560
G03 X34.0200 Y97.3058 I1.4928 J0.1499
G01 X46.7500
G03 X48.2500 Y98.8258 I-0.0001 J1.5002
G01 Y108.5560
G01 X51.7500
G01 Y100.7202
G01 Z0.0000
G01 Y98.8058
G01 X51.7575 Y98.6560
G03 X53.4804 Y97.3058 I1.5194 J0.1645
G01 Z-2.5000
G01 Z-4.5000 F180
G01 X66.0000 F1200
G03 X67.5000 Y98.8258 I-0.0001 J1.5002
G01 Y108.5560
G01 X71.0000
G01 Y98.8058
G01 X71.0075 Y98.6560
G03 X72.5200 Y97.3058 I1.4928 J0.1499
G01 X85.2500
G03 X86.7500 Y98.8258 I-0.0001 J1.5002
G01 Y108.5560
G01 X90.2500
G01 Y103.4965
G01 Z0.0000
G01 Y98.9965
G01 Z-2.5000
G01 Z-4.5000 F180
G01 Y98.8058 F1200
G01 X90.2575 Y98.6560
G03 X91.7700 Y97.3058 I1.4928 J0.1499
G01 X100.0000
G03 X101.5000 Y98.8258 I-0.0001 J1.5002
G01 Y113.8060
G03 X101.2463 Y114.6409 I-1.5024 J-0.0005
G01 X89.7573 Y132.2971
G01 X89.6693 Y132.4185
G01 X74.8294 Y150.5032
G01 Z0.0000
G01 X71.9749 Y153.9820
G01 Z-2.5000
G01 Z-4.5000 F180
G01 X70.4096 Y155.8895 F1200
G03 X69.8595 Y156.3088 I-1.1619 J-0.9541
G01 X50.6276 Y165.1684
G03 X49.3542 Y165.1600 I-0.6278 J-1.3632
G01 X30.1224 Y156.3004
G03 X29.5777 Y155.8741 I0.6295 J-1.3653
G01 X13.0091 Y135.6827
G01 Z0.0000
G01 X10.3404 Y132.4305
G03 X10.1731 Y132.1901 I2.3575 J-1.8191
G01 Z-4.0000
G01 Z-6.0000 F180
G01 X-1.2573 Y114.6241 F1200
G03 X-1.4956 Y113.9212 I1.2573 J-0.8181
G01 X-1.5000 Y113.7860
G01 Y98.8058
G01 X-1.4925 Y98.6560
G03 X0.0200 Y97.3058 I1.4928 J0.1499
G01 X8.2500
G03 X9.7500 Y98.8258 I-0.0001 J1.5002
G01 Y108.5560
G01 X13.2500
G01 Y98.8058
G01 X13.2575 Y98.6560
G03 X13.4923 Y97.9910 I1.4599 J0.1414
G01 Z0.0000
G03 X14.7700 Y97.3058 I1.2569 J0.8097
G01 X17.7566
G01 Z-4.0000
G01 Z-6.0000 F180
G01 X27.5000 F1200
G03 X29.0000 Y98.8258 I-0.0001 J1.5002
G01 Y108.5560
G01 X32.5000
G01 Y98.8058
G01 X32.5075 Y98.6560
G03 X34.0200 Y97.3058 I1.4928 J0.1499
G01 X46.7500
G03 X48.2500 Y98.8258 I-0.0001 J1.5002
G01 Y108.5560
G01 X51.7500
G01 Y100.7202
G01 Z0.0000
G01 Y98.8058
G01 X51.7575 Y98.6560
G03 X53.4804 Y97.3058 I1.5194 J0.1645
G01 Z-4.0000
G01 Z-6.0000 F180
G01 X66.0000 F1200
G03 X67.5000 Y98.8258 I-0.0001 J1.5002
G01 Y108.5560
G01 X71.0000
G01 Y98.8058
G01 X71.0075 Y98.6560
G03 X72.5200 Y97.3058 I1.4928 J0.1499
G01 X85.2500
G03 X86.7500 Y98.8258 I-0.0001 J1.5002
G01 Y108.5560
G01 X90.2500
G01 Y103.4965
G01 Z0.0000
G01 Y98.9965
G01 Z-4.0000
G01 Z-6.0000 F180
G01 Y98.8058 F1200
G01 X90.2575 Y98.6560
G03 X91.7700 Y97.3058 I1.4928 J0.1499
G01 X100.0000
G03 X101.5000 Y98.8258 I-0.0001 J1.5002
G01 Y113.8060
G03 X101.2463 Y114.6409 I-1.5024 J-0.0005
G01 X89.7573 Y132.2971
G01 X89.6693 Y132.4185
G01 X74.8294 Y150.5032
G01 Z0.0000
G01 X71.9749 Y153.9820
G01 Z-4.0000
G01 Z-6.0000 F180
G01 X70.4096 Y155.8895 F1200
G03 X69.8595 Y156.3088 I-1.1619 J-0.9541
G01 X50.6276 Y165.1684
G03 X49.3542 Y165.1600 I-0.6278 J-1.3632
G01 X30.1224 Y156.3004
G03 X29.5777 Y155.8741 I0.6295 J-1.3653
G01 X13.0091 Y135.6827
G01 Z0.0000
G01 X10.3404 Y132.4305
G03 X10.1731 Y132.1901 I2.3575 J-1.8191
G01 Z-5.5000
G01 Z-7.0000 F180
G01 X-1.2573 Y114.6241 F1200
G03 X-1.4956 Y113.9212 I1.2573 J-0.8181
G01 X-1.5000 Y113.7860
G01 Y98.8058
G01 X-1.4925 Y98.6560
G03 X0.0200 Y97.3058 I1.4928 J0.1499
G01 X8.2500
G03 X9.7500 Y98.8258 I-0.0001 J1.5002
G01 Y108.5560
G01 X13.2500
G01 Y98.8058
G01 X13.2575 Y98.6560
G03 X13.4923 Y97.9910 I1.4599 J0.1414
G01 Z0.0000
G03 X14.7700 Y97.3058 I1.2569 J0.8097
G01 X17.7566
G01 Z-5.5000
G01 Z-7.0000 F180
G01 X27.5000 F1200
G03 X29.0000 Y98.8258 I-0.0001 J1.5002
G01 Y108.5560
G01 X32.5000
G01 Y98.8058
G01 X32.5075 Y98.6560
G03 X34.0200 Y97.3058 I1.4928 J0.1499
G01 X46.7500
G03 X48.2500 Y98.8258 I-0.0001 J1.5002
G01 Y108.5560
G01 X51.7500
G01 Y100.7202
G01 Z0.0000
G01 Y98.8058
G01 X51.7575 Y98.6560
G03 X53.4804 Y97.3058 I1.5194 J0.1645
G01 Z-5.5000
G01 Z-7.0000 F180
G01 X66.0000 F1200
G03 X67.5000 Y98.8258 I-0.0001 J1.5002
G01 Y108.5560
G01 X71.0000
G01 Y98.8058
G01 X71.0075 Y98.6560
G03 X72.5200 Y97.3058 I1.4928 J0.1499
G01 X85.2500
G03 X86.7500 Y98.8258 I-0.0001 J1.5002
G01 Y108.5560
G01 X90.2500
G01 Y103.4965
G01 Z0.0000
G01 Y98.9965
G01 Z-5.5000
G01 Z-7.0000 F180
G01 Y98.8058 F1200
G01 X90.2575 Y98.6560
G03 X91.7700 Y97.3058 I1.4928 J0.1499
G01 X100.0000
G03 X101.5000 Y98.8258 I-0.0001 J1.5002
G01 Y113.8060
G03 X101.2463 Y114.6409 I-1.5024 J-0.0005
G01 X89.7573 Y132.2971
G01 X89.6693 Y132.4185
G01 X74.8294 Y150.5032
G01 Z0.0000
G01 X71.9749 Y153.9820
G01 Z-5.5000
G01 Z-7.0000 F180
G01 X70.4096 Y155.8895 F1200
G03 X69.8595 Y156.3088 I-1.1619 J-0.9541
G01 X50.6276 Y165.1684
G03 X49.3542 Y165.1600 I-0.6278 J-1.3632
G01 X30.1224 Y156.3004
G03 X29.5777 Y155.8741 I0.6295 J-1.3653
G01 X13.0091 Y135.6827
G01 Z0.0000
G01 X10.3404 Y132.4305
G03 X10.1731 Y132.1901 I2.3575 J-1.8191
G01 Z5.0000


;No. 4: Part 4
G01 X11.0457 Y200.0135 Z5.0000
G01 Z0.5000
G01 Z-1.5000 F180
G01 X10.4380 Y199.4043 F1200
G01 X10.3376 Y199.2930
G01 X-1.1765 Y184.7366
G03 X-1.4964 Y183.9097 I1.1765 J-0.9306
G01 X-1.5000 Y183.7860
G01 Y168.8060
G01 X-1.4925 Y168.6562
G03 X0.0200 Y167.3060 I1.4928 J0.1499
G01 X8.2500
G03 X9.7500 Y168.8260 I-0.0001 J1.5002
G01 Y178.5560
G01 X13.2500
G01 Y169.1930
G01 Z0.0000
G01 Y168.8060
G01 X13.2575 Y168.6562
G03 X14.7700 Y167.3060 I1.4928 J0.1499
G01 X16.5078
G01 Z-1.5000 F180
G01 X27.5000 F1200
G03 X29.0000 Y168.8260 I-0.0001 J1.5002
G01 Y178.5560
G01 X32.5000
G01 Y168.8060
G01 X32.5075 Y168.6562
G03 X34.0200 Y167.3060 I1.4928 J0.1499
G01 X46.7500
G03 X48.2500 Y168.8260 I-0.0001 J1.5002
G01 Y178.5560
G01 X51.7500
G01 Y174.4669
G01 Z0.0000
G01 Y169.9669
G01 Z-1.5000 F180
G01 Y168.8060 F1200
G01 X51.7575 Y168.6562
G03 X53.2700 Y167.3060 I1.4928 J0.1499
G01 X66.0000
G03 X67.5000 Y168.8260 I-0.0001 J1.5002
G01 Y178.5560
G01 X71.0000
G01 Y168.8060
G01 X71.0075 Y168.6562
G03 X72.5200 Y167.3060 I1.4928 J0.1499
G01 X85.2500
G03 X86.7500 Y168.8260 I-0.0001 J1.5002
G01 Y178.5560
G01 X89.0652
G01 Z0.0000
G01 X90.2500
G01 Y175.2408
G01 Z-1.5000 F180
G01 Y168.8060 F1200
G01 X90.2575 Y168.6562
G03 X91.7700 Y167.3060 I1.4928 J0.1499
G01 X100.0000
G03 X101.5000 Y168.8260 I-0.0001 J1.5002
G01 Y183.8060
G03 X101.1641 Y184.7522 I-1.5014 J-0.0003
G01 X89.6765 Y199.2756
G01 X89.5777 Y199.3884
G01 X89.5479 Y199.4185
G01 X77.5289 Y211.4674
G01 Z0.0000
G01 X74.3509 Y214.6534
G01 Z-1.5000 F180
G01 X70.3120 Y218.7023 F1200
G03 X69.7629 Y219.0527 I-1.0646 J-1.0629
G01 X50.5316 Y226.3407
G03 X49.4497 Y226.3336 I-0.5317 J-1.4037
G01 X30.2184 Y219.0457
G03 X29.6739 Y218.6882 I0.5337 J-1.4066
G01 X14.2237 Y203.1994
G01 Z0.0000
G01 X11.0457 Y200.0135
G01 Z-1.0000
G01 Z-3.0000 F180
G01 X10.4380 Y199.4043 F1200
G01 X10.3376 Y199.2930
G01 X-1.1765 Y184.7366
G03 X-1.4964 Y183.9097 I1.1765 J-0.9306
G01 X-1.5000 Y183.7860
G01 Y168.8060
G01 X-1.4925 Y168.6562
G03 X0.0200 Y167.3060 I1.4928 J0.1499
G01 X8.2500
G03 X9.7500 Y168.8260 I-0.0001 J1.5002
G01 Y178.5560
G01 X13.2500
G01 Y169.1930
G01 Z0.0000
G01 Y168.8060
G01 X13.2575 Y168.6562
G03 X14.7700 Y167.3060 I1.4928 J0.1499
G01 X16.5078
G01 Z-1.0000
G01 Z-3.0000 F180
G01 X27.5000 F1200
G03 X29.0000 Y168.8260 I-0.0001 J1.5002
G01 Y178.5560
G01 X32.5000
G01 Y168.8060
G01 X32.5075 Y168.6562
G03 X34.0200 Y167.3060 I1.4928 J0.1499
G01 X46.7500
G03 X48.2500 Y168.8260 I-0.0001 J1.5002
G01 Y178.5560
G01 X51.7500
G01 Y174.4669
G01 Z0.0000
G01 Y169.9669
G01 Z-1.0000
G01 Z-3.0000 F180
G01 Y168.8060 F1200
G01 X51.7575 Y168.6562
G03 X53.2700 Y167.3060 I1.4928 J0.1499
G01 X66.0000
G03 X67.5000 Y168.8260 I-0.0001 J1.5002
G01 Y178.5560
G01 X71.0000
G01 Y168.8060
G01 X71.0075 Y168.6562
G03 X72.5200 Y167.3060 I1.4928 J0.1499
G01 X85.2500
G03 X86.7500 Y168.8260 I-0.0001 J1.5002
G01 Y178.5560
G01 X89.0652
G01 Z0.0000
G01 X90.2500
G01 Y175.2408
G01 Z-1.0000
G01 Z-3.0000 F180
G01 Y168.8060 F1200
G01 X90.2575 Y168.6562
G03 X91.7700 Y167.3060 I1.4928 J0.1499
G01 X100.0000
G03 X101.5000 Y168.8260 I-0.0001 J1.5002
G01 Y183.8060
G03 X101.1641 Y184.7522 I-1.5014 J-0.0003
G01 X89.6765 Y199.2756
G01 X89.5777 Y199.3884
G01 X89.5479 Y199.4185
G01 X77.5289 Y211.4674
G01 Z0.0000
G01 X74.3509 Y214.6534
G01 Z-1.0000
G01 Z-3.0000 F180
G01 X70.3120 Y218.7023 F1200
G03 X69.7629 Y219.0527 I-1.0646 J-1.0629
G01 X50.5316 Y226.3407
G03 X49.4497 Y226.3336 I-0.5317 J-1.4037
G01 X30.2184 Y219.0457
G03 X29.6739 Y218.6882 I0.5337 J-1.4066
G01 X14.2237 Y203.1994
G01 Z0.0000
G01 X11.0457 Y200.0135
G01 Z-2.5000
G01 Z-4.5000 F180
G01 X10.4380 Y199.4043 F1200
G01 X10.3376 Y199.2930
G01 X-1.1765 Y184.7366
G03 X-1.4964 Y183.9097 I1.1765 J-0.9306
G01 X-1.5000 Y183.7860
G01 Y168.8060
G01 X-1.4925 Y168.6562
G03 X0.0200 Y167.3060 I1.4928 J0.1499
G01 X8.2500
G03 X9.7500 Y168.8260 I-0.0001 J1.5002
G01 Y178.5560
G01 X13.2500
G01 Y169.1930
G01 Z0.0000
G01 Y168.8060
G01 X13.2575 Y168.6562
G03 X14.7700 Y167.3060 I1.4928 J0.1499
G01 X16.5078
G01 Z-2.5000
G01 Z-4.5000 F180
G01 X27.5000 F1200
G03 X29.0000 Y168.8260 I-0.0001 J1.5002
G01 Y178.5560
G01 X32.5000
G01 Y168.8060
G01 X32.5075 Y168.6562
G03 X34.0200 Y167.3060 I1.4928 J0.1499
G01 X46.7500
G03 X48.2500 Y168.8260 I-0.0001 J1.5002
G01 Y178.5560
G01 X51.7500
G01 Y174.4669
G01 Z0.0000
G01 Y169.9669
G01 Z-2.5000
G01 Z-4.5000 F180
G01 Y168.8060 F1200
G01 X51.7575 Y168.6562
G03 X53.2700 Y167.3060 I1.4928 J0.1499
G01 X66.0000
G03 X67.5000 Y168.8260 I-0.0001 J1.5002
G01 Y178.5560
G01 X71.0000
G01 Y168.8060
G01 X71.0075 Y168.6562
G03 X72.5200 Y167.3060 I1.4928 J0.1499
G01 X85.2500
G03 X86.7500 Y168.8260 I-0.0001 J1.5002
G01 Y178.5560
G01 X89.0652
G01 Z0.0000
G01 X90.2500
G01 Y175.2408
G01 Z-2.5000
G01 Z-4.5000 F180
G01 Y168.8060 F1200
G01 X90.2575 Y168.6562
G03 X91.7700 Y167.3060 I1.4928 J0.1499
G01 X100.0000
G03 X101.5000 Y168.8260 I-0.0001 J1.5002
G01 Y183.8060
G03 X101.1641 Y184.7522 I-1.5014 J-0.0003
G01 X89.6765 Y199.2756
G01 X89.5777 Y199.3884
G01 X89.5479 Y199.4185
G01 X77.5289 Y211.4674
G01 Z0.0000
G01 X74.3509 Y214.6534
G01 Z-2.5000
G01 Z-4.5000 F180
G01 X70.3120 Y218.7023 F1200
G03 X69.7629 Y219.0527 I-1.0646 J-1.0629
G01 X50.5316 Y226.3407
G03 X49.4497 Y226.3336 I-0.5317 J-1.4037
G01 X30.2184 Y219.0457
G03 X29.6739 Y218.6882 I0.5337 J-1.4066
G01 X14.2237 Y203.1994
G01 Z0.0000
G01 X11.0457 Y200.0135
G01 Z-4.0000
G01 Z-6.0000 F180
G01 X10.4380 Y199.4043 F1200
G01 X10.3376 Y199.2930
G01 X-1.1765 Y184.7366
G03 X-1.4964 Y183.9097 I1.1765 J-0.9306
G01 X-1.5000 Y183.7860
G01 Y168.8060
G01 X-1.4925 Y168.6562
G03 X0.0200 Y167.3060 I1.4928 J0.1499
G01 X8.2500
G03 X9.7500 Y168.8260 I-0.0001 J1.5002
G01 Y178.5560
G01 X13.2500
G01 Y169.1930
G01 Z0.0000
G01 Y168.8060
G01 X13.2575 Y168.6562
G03 X14.7700 Y167.3060 I1.4928 J0.1499
G01 X16.5078
G01 Z-4.0000
G01 Z-6.0000 F180
G01 X27.5000 F1200
G03 X29.0000 Y168.8260 I-0.0001 J1.5002
G01 Y178.5560
G01 X32.5000
G01 Y168.8060
G01 X32.5075 Y168.6562
G03 X34.0200 Y167.3060 I1.4928 J0.1499
G01 X46.7500
G03 X48.2500 Y168.8260 I-0.0001 J1.5002
G01 Y178.5560
G01 X51.7500
G01 Y174.4669
G01 Z0.0000
G01 Y169.9669
G01 Z-4.0000
G01 Z-6.0000 F180
G01 Y168.8060 F1200
G01 X51.7575 Y168.6562
G03 X53.2700 Y167.3060 I1.4928 J0.1499
G01 X66.0000
G03 X67.5000 Y168.8260 I-0.0001 J1.5002
G01 Y178.5560
G01 X71.0000
G01 Y168.8060
G01 X71.0075 Y168.6562
G03 X72.5200 Y167.3060 I1.4928 J0.1499
G01 X85.2500
G03 X86.7500 Y168.8260 I-0.0001 J1.5002
G01 Y178.5560
G01 X89.0652
G01 Z0.0000
G01 X90.2500
G01 Y175.2408
G01 Z-4.0000
G01 Z-6.0000 F180
G01 Y168.8060 F1200
G01 X90.2575 Y168.6562
G03 X91.7700 Y167.3060 I1.4928 J0.1499
G01 X100.0000
G03 X101.5000 Y168.8260 I-0.0001 J1.5002
G01 Y183.8060
G03 X101.1641 Y184.7522 I-1.5014 J-0.0003
G01 X89.6765 Y199.2756
G01 X89.5777 Y199.3884
G01 X89.5479 Y199.4185
G01 X77.5289 Y211.4674
G01 Z0.0000
G01 X74.3509 Y214.6534
G01 Z-4.0000
G01 Z-6.0000 F180
G01 X70.3120 Y218.7023 F1200
G03 X69.7629 Y219.0527 I-1.0646 J-1.0629
G01 X50.5316 Y226.3407
G03 X49.4497 Y226.3336 I-0.5317 J-1.4037
G01 X30.2184 Y219.0457
G03 X29.6739 Y218.6882 I0.5337 J-1.4066
G01 X14.2237 Y203.1994
G01 Z0.0000
G01 X11.0457 Y200.0135
G01 Z-5.5000
G01 Z-7.0000 F180
G01 X10.4380 Y199.4043 F1200
G01 X10.3376 Y199.2930
G01 X-1.1765 Y184.7366
G03 X-1.4964 Y183.9097 I1.1765 J-0.9306
G01 X-1.5000 Y183.7860
G01 Y168.8060
G01 X-1.4925 Y168.6562
G03 X0.0200 Y167.3060 I1.4928 J0.1499
G01 X8.2500
G03 X9.7500 Y168.8260 I-0.0001 J1.5002
G01 Y178.5560
G01 X13.2500
G01 Y169.1930
G01 Z0.0000
G01 Y168.8060
G01 X13.2575 Y168.6562
G03 X14.7700 Y167.3060 I1.4928 J0.1499
G01 X16.5078
G01 Z-5.5000
G01 Z-7.0000 F180
G01 X27.5000 F1200
G03 X29.0000 Y168.8260 I-0.0001 J1.5002
G01 Y178.5560
G01 X32.5000
G01 Y168.8060
G01 X32.5075 Y168.6562
G03 X34.0200 Y167.3060 I1.4928 J0.1499
G01 X46.7500
G03 X48.2500 Y168.8260 I-0.0001 J1.5002
G01 Y178.5560
G01 X51.7500
G01 Y174.4669
G01 Z0.0000
G01 Y169.9669
G01 Z-5.5000
G01 Z-7.0000 F180
G01 Y168.8060 F1200
G01 X51.7575 Y168.6562
G03 X53.2700 Y167.3060 I1.4928 J0.1499
G01 X66.0000
G03 X67.5000 Y168.8260 I-0.0001 J1.5002
G01 Y178.5560
G01 X71.0000
G01 Y168.8060
G01 X71.0075 Y168.6562
G03 X72.5200 Y167.3060 I1.4928 J0.1499
G01 X85.2500
G03 X86.7500 Y168.8260 I-0.0001 J1.5002
G01 Y178.5560
G01 X89.0652
G01 Z0.0000
G01 X90.2500
G01 Y175.2408
G01 Z-5.5000
G01 Z-7.0000 F180
G01 Y168.8060 F1200
G01 X90.2575 Y168.6562
G03 X91.7700 Y167.3060 I1.4928 J0.1499
G01 X100.0000
G03 X101.5000 Y168.8260 I-0.0001 J1.5002
G01 Y183.8060
G03 X101.1641 Y184.7522 I-1.5014 J-0.0003
G01 X89.6765 Y199.2756
G01 X89.5777 Y199.3884
G01 X89.5479 Y199.4185
G01 X77.5289 Y211.4674
G01 Z0.0000
G01 X74.3509 Y214.6534
G01 Z-5.5000
G01 Z-7.0000 F180
G01 X70.3120 Y218.7023 F1200
G03 X69.7629 Y219.0527 I-1.0646 J-1.0629
G01 X50.5316 Y226.3407
G03 X49.4497 Y226.3336 I-0.5317 J-1.4037
G01 X30.2184 Y219.0457
G03 X29.6739 Y218.6882 I0.5337 J-1.4066
G01 X14.2237 Y203.1994
G01 Z0.0000
G01 X11.0457 Y200.0135
G01 Z5.0000


;No. 5: Part 2
G01 X13.8225 Y253.8187 Z5.0000
G01 Z0.5000
G01 Z-1.5000 F180
G01 X10.9066 Y252.5626 F1200
G01 X10.7664 Y252.4935
G01 X-0.7160 Y246.2561
G03 X-1.4960 Y245.0477 I0.7160 J-1.3181
G01 X-1.5000 Y244.9180
G01 Y229.9380
G01 X-1.4925 Y229.7882
G03 X0.0200 Y228.4380 I1.4928 J0.1499
G01 X8.2500
G03 X9.7500 Y229.9580 I-0.0001 J1.5002
G01 Y239.6880
G01 X13.2500
G01 Y232.8910
G01 Z0.0000
G01 Y229.9380
G01 X13.2575 Y229.7882
G03 X13.9809 Y228.6521 I1.4825 J0.1455
G01 Z-1.5000 F180
G03 X14.7700 Y228.4380 I0.7688 J1.2723 F1200
G01 X27.5000
G03 X29.0000 Y229.9580 I-0.0001 J1.5002
G01 Y239.6880
G01 X32.5000
G01 Y229.9380
G01 X32.5075 Y229.7882
G03 X34.0200 Y228.4380 I1.4928 J0.1499
G01 X46.7500
G03 X48.2500 Y229.9580 I-0.0001 J1.5002
G01 Y239.5791
G01 Z0.0000
G01 Y239.6880
G01 X51.7500
G01 Y238.7969
G01 Z-1.5000 F180
G01 Y229.9380 F1200
G01 X51.7575 Y229.7882
G03 X53.2700 Y228.4380 I1.4928 J0.1499
G01 X66.0000
G03 X67.5000 Y229.9580 I-0.0001 J1.5002
G01 Y239.6880
G01 X71.0000
G01 Y229.9380
G01 X71.0075 Y229.7882
G03 X72.5200 Y228.4380 I1.4928 J0.1499
G01 X85.2500
G03 X86.5575 Y229.2065 I0.0023 J1.4926
G01 Z0.0000
G03 X86.7500 Y229.9580 I-1.2899 J0.7309
G01 Y233.6731
G01 Z-1.5000 F180
G01 Y239.6880 F1200
G01 X90.2500
G01 Y229.9380
G01 X90.2575 Y229.7882
G03 X91.7700 Y228.4380 I1.4928 J0.1499
G01 X100.0000
G03 X101.5000 Y229.9580 I-0.0001 J1.5002
G01 Y244.9380
G03 X100.6984 Y246.2656 I-1.5005 J-0.0002
G01 X89.2160 Y252.5031
G01 X89.0750 Y252.5705
G01 X85.4592 Y254.1281
G01 Z0.0000
G01 X81.3263 Y255.9083
G01 Z-1.5000 F180
G01 X69.8434 Y260.8546 F1200
G03 X69.4714 Y260.9607 I-0.5988 J-1.3946
G01 X50.2411 Y264.0925
G03 X49.7392 Y264.0893 I-0.2415 J-1.4864
G01 X30.5089 Y260.9575
G03 X30.1382 Y260.8467 I0.2457 J-1.4977
G01 X17.9553 Y255.5989
G01 Z0.0000
G01 X13.8225 Y253.8187
G01 Z-1.0000
G01 Z-3.0000 F180
G01 X10.9066 Y252.5626 F1200
G01 X10.7664 Y252.4935
G01 X-0.7160 Y246.2561
G03 X-1.4960 Y245.0477 I0.7160 J-1.3181
G01 X-1.5000 Y244.9180
G01 Y229.9380
G01 X-1.4925 Y229.7882
G03 X0.0200 Y228.4380 I1.4928 J0.1499
G01 X8.2500
G03 X9.7500 Y229.9580 I-0.0001 J1.5002
G01 Y239.6880
G01 X13.2500
G01 Y232.8910
G01 Z0.0000
G01 Y229.9380
G01 X13.2575 Y229.7882
G03 X13.9809 Y228.6521 I1.4825 J0.1455
G01 Z-1.0000
G01 Z-3.0000 F180
G03 X14.7700 Y228.4380 I0.7688 J1.2723 F1200
G01 X27.5000
G03 X29.0000 Y229.9580 I-0.0001 J1.5002
G01 Y239.6880
G01 X32.5000
G01 Y229.9380
G01 X32.5075 Y229.7882
G03 X34.0200 Y228.4380 I1.4928 J0.1499
G01 X46.7500
G03 X48.2500 Y229.9580 I-0.0001 J1.5002
G01 Y239.5791
G01 Z0.0000
G01 Y239.6880
G01 X51.7500
G01 Y238.7969
G01 Z-1.0000
G01 Z-3.0000 F180
G01 Y229.9380 F1200
G01 X51.7575 Y229.7882
G03 X53.2700 Y228.4380 I1.4928 J0.1499
G01 X66.0000
G03 X67.5000 Y229.9580 I-0.0001 J1.5002
G01 Y239.6880
G01 X71.0000
G01 Y229.9380
G01 X71.0075 Y229.7882
G03 X72.5200 Y228.4380 I1.4928 J0.1499
G01 X85.2500
G03 X86.5575 Y229.2065 I0.0023 J1.4926
G01 Z0.0000
G03 X86.7500 Y229.9580 I-1.2899 J0.7309
G01 Y233.6731
G01 Z-1.0000
G01 Z-3.0000 F180
G01 Y239.6880 F1200
G01 X90.2500
G01 Y229.9380
G01 X90.2575 Y229.7882
G03 X91.7700 Y228.4380 I1.4928 J0.1499
G01 X100.0000
G03 X101.5000 Y229.9580 I-0.0001 J1.5002
G01 Y244.9380
G03 X100.6984 Y246.2656 I-1.5005 J-0.0002
G01 X89.2160 Y252.5031
G01 X89.0750 Y252.5705
G01 X85.4592 Y254.1281
G01 Z0.0000
G01 X81.3263 Y255.9083
G01 Z-1.0000
G01 Z-3.0000 F180
G01 X69.8434 Y260.8546 F1200
G03 X69.4714 Y260.9607 I-0.5988 J-1.3946
G01 X50.2411 Y264.0925
G03 X49.7392 Y264.0893 I-0.2415 J-1.4864
G01 X30.5089 Y260.9575
G03 X30.1382 Y260.8467 I0.2457 J-1.4977
G01 X17.9553 Y255.5989
G01 Z0.0000
G01 X13.8225 Y253.8187
G01 Z-2.5000
G01 Z-4.5000 F180
G01 X10.9066 Y252.5626 F1200
G01 X10.7664 Y252.4935
G01 X-0.7160 Y246.2561
G03 X-1.4960 Y245.0477 I0.7160 J-1.3181
G01 X-1.5000 Y244.9180
G01 Y229.9380
G01 X-1.4925 Y229.7882
G03 X0.0200 Y228.4380 I1.4928 J0.1499
G01 X8.2500
G03 X9.7500 Y229.9580 I-0.0001 J1.5002
G01 Y239.6880
G01 X13.2500
G01 Y232.8910
G01 Z0.0000
G01 Y229.9380
G01 X13.2575 Y229.7882
G03 X13.9809 Y228.6521 I1.4825 J0.1455
G01 Z-2.5000
G01 Z-4.5000 F180
G03 X14.7700 Y228.4380 I0.7688 J1.2723 F1200
G01 X27.5000
G03 X29.0000 Y229.9580 I-0.0001 J1.5002
G01 Y239.6880
G01 X32.5000
G01 Y229.9380
G01 X32.5075 Y229.7882
G03 X34.0200 Y228.4380 I1.4928 J0.1499
G01 X46.7500
G03 X48.2500 Y229.9580 I-0.0001 J1.5002
G01 Y239.5791
G01 Z0.0000
G01 Y239.6880
G01 X51.7500
G01 Y238.7969
G01 Z-2.5000
G01 Z-4.5000 F180
G01 Y229.9380 F1200
G01 X51.7575 Y229.7882
G03 X53.2700 Y228.4380 I1.4928 J0.1499
G01 X66.0000
G03 X67.5000 Y229.9580 I-0.0001 J1.5002
G01 Y239.6880
G01 X71.0000
G01 Y229.9380
G01 X71.0075 Y229.7882
G03 X72.5200 Y228.4380 I1.4928 J0.1499
G01 X85.2500
G03 X86.5575 Y229.2065 I0.0023 J1.4926
G01 Z0.0000
G03 X86.7500 Y229.9580 I-1.2899 J0.7309
G01 Y233.6731
G01 Z-2.5000
G01 Z-4.5000 F180
G01 Y239.6880 F1200
G01 X90.2500
G01 Y229.9380
G01 X90.2575 Y229.7882
G03 X91.7700 Y228.4380 I1.4928 J0.1499
G01 X100.0000
G03 X101.5000 Y229.9580 I-0.0001 J1.5002
G01 Y244.9380
G03 X100.6984 Y246.2656 I-1.5005 J-0.0002
G01 X89.2160 Y252.5031
G01 X89.0750 Y252.5705
G01 X85.4592 Y254.1281
G01 Z0.0000
G01 X81.3263 Y255.9083
G01 Z-2.5000
G01 Z-4.5000 F180
G01 X69.8434 Y260.8546 F1200
G03 X69.4714 Y260.9607 I-0.5988 J-1.3946
G01 X50.2411 Y264.0925
G03 X49.7392 Y264.0893 I-0.2415 J-1.4864
G01 X30.5089 Y260.9575
G03 X30.1382 Y260.8467 I0.2457 J-1.4977
G01 X17.9553 Y255.5989
G01 Z0.0000
G01 X13.8225 Y253.8187
G01 Z-4.0000
G01 Z-6.0000 F180
G01 X10.9066 Y252.5626 F1200
G01 X10.7664 Y252.4935
G01 X-0.7160 Y246.2561
G03 X-1.4960 Y245.0477 I0.7160 J-1.3181
G01 X-1.5000 Y244.9180
G01 Y229.9380
G01 X-1.4925 Y229.7882
G03 X0.0200 Y228.4380 I1.4928 J0.1499
G01 X8.2500
G03 X9.7500 Y229.9580 I-0.0001 J1.5002
G01 Y239.6880
G01 X13.2500
G01 Y232.8910
G01 Z0.0000
G01 Y229.9380
G01 X13.2575 Y229.7882
G03 X13.9809 Y228.6521 I1.4825 J0.1455
G01 Z-4.0000
G01 Z-6.0000 F180
G03 X14.7700 Y228.4380 I0.7688 J1.2723 F1200
G01 X27.5000
G03 X29.0000 Y229.9580 I-0.0001 J1.5002
G01 Y239.6880
G01 X32.5000
G01 Y229.9380
G01 X32.5075 Y229.7882
G03 X34.0200 Y228.4380 I1.4928 J0.1499
G01 X46.7500
G03 X48.2500 Y229.9580 I-0.0001 J1.5002
G01 Y239.5791
G01 Z0.0000
G01 Y239.6880
G01 X51.7500
G01 Y238.7969
G01 Z-4.0000
G01 Z-6.0000 F180
G01 Y229.9380 F1200
G01 X51.7575 Y229.7882
G03 X53.2700 Y228.4380 I1.4928 J0.1499
G01 X66.0000
G03 X67.5000 Y229.9580 I-0.0001 J1.5002
G01 Y239.6880
G01 X71.0000
G01 Y229.9380
G01 X71.0075 Y229.7882
G03 X72.5200 Y228.4380 I1.4928 J0.1499
G01 X85.2500
G03 X86.5575 Y229.2065 I0.0023 J1.4926
G01 Z0.0000
G03 X86.7500 Y229.9580 I-1.2899 J0.7309
G01 Y233.6731
G01 Z-4.0000
G01 Z-6.0000 F180
G01 Y239.6880 F1200
G01 X90.2500
G01 Y229.9380
G01 X90.2575 Y229.7882
G03 X91.7700 Y228.4380 I1.4928 J0.1499
G01 X100.0000
G03 X101.5000 Y229.9580 I-0.0001 J1.5002
G01 Y244.9380
G03 X100.6984 Y246.2656 I-1.5005 J-0.0002
G01 X89.2160 Y252.5031
G01 X89.0750 Y252.5705
G01 X85.4592 Y254.1281
G01 Z0.0000
G01 X81.3263 Y255.9083
G01 Z-4.0000
G01 Z-6.0000 F180
G01 X69.8434 Y260.8546 F1200
G03 X69.4714 Y260.9607 I-0.5988 J-1.3946
G01 X50.2411 Y264.0925
G03 X49.7392 Y264.0893 I-0.2415 J-1.4864
G01 X30.5089 Y260.9575
G03 X30.1382 Y260.8467 I0.2457 J-1.4977
G01 X17.9553 Y255.5989
G01 Z0.0000
G01 X13.8225 Y253.8187
G01 Z-5.5000
G01 Z-7.0000 F180
G01 X10.9066 Y252.5626 F1200
G01 X10.7664 Y252.4935
G01 X-0.7160 Y246.2561
G03 X-1.4960 Y245.0477 I0.7160 J-1.3181
G01 X-1.5000 Y244.9180
G01 Y229.9380
G01 X-1.4925 Y229.7882
G03 X0.0200 Y228.4380 I1.4928 J0.1499
G01 X8.2500
G03 X9.7500 Y229.9580 I-0.0001 J1.5002
G01 Y239.6880
G01 X13.2500
G01 Y232.8910
G01 Z0.0000
G01 Y229.9380
G01 X13.2575 Y229.7882
G03 X13.9809 Y228.6521 I1.4825 J0.1455
G01 Z-5.5000
G01 Z-7.0000 F180
G03 X14.7700 Y228.4380 I0.7688 J1.2723 F1200
G01 X27.5000
G03 X29.0000 Y229.9580 I-0.0001 J1.5002
G01 Y239.6880
G01 X32.5000
G01 Y229.9380
G01 X32.5075 Y229.7882
G03 X34.0200 Y228.4380 I1.4928 J0.1499
G01 X46.7500
G03 X48.2500 Y229.9580 I-0.0001 J1.5002
G01 Y239.5791
G01 Z0.0000
G01 Y239.6880
G01 X51.7500
G01 Y238.7969
G01 Z-5.5000
G01 Z-7.0000 F180
G01 Y229.9380 F1200
G01 X51.7575 Y229.7882
G03 X53.2700 Y228.4380 I1.4928 J0.1499
G01 X66.0000
G03 X67.5000 Y229.9580 I-0.0001 J1.5002
G01 Y239.6880
G01 X71.0000
G01 Y229.9380
G01 X71.0075 Y229.7882
G03 X72.5200 Y228.4380 I1.4928 J0.1499
G01 X85.2500
G03 X86.5575 Y229.2065 I0.0023 J1.4926
G01 Z0.0000
G03 X86.7500 Y229.9580 I-1.2899 J0.7309
G01 Y233.6731
G01 Z-5.5000
G01 Z-7.0000 F180
G01 Y239.6880 F1200
G01 X90.2500
G01 Y229.9380
G01 X90.2575 Y229.7882
G03 X91.7700 Y228.4380 I1.4928 J0.1499
G01 X100.0000
G03 X101.5000 Y229.9580 I-0.0001 J1.5002
G01 Y244.9380
G03 X100.6984 Y246.2656 I-1.5005 J-0.0002
G01 X89.2160 Y252.5031
G01 X89.0750 Y252.5705
G01 X85.4592 Y254.1281
G01 Z0.0000
G01 X81.3263 Y255.9083
G01 Z-5.5000
G01 Z-7.0000 F180
G01 X69.8434 Y260.8546 F1200
G03 X69.4714 Y260.9607 I-0.5988 J-1.3946
G01 X50.2411 Y264.0925
G03 X49.7392 Y264.0893 I-0.2415 J-1.4864
G01 X30.5089 Y260.9575
G03 X30.1382 Y260.8467 I0.2457 J-1.4977
G01 X17.9553 Y255.5989
G01 Z0.0000
G01 X13.8225 Y253.8187
G01 Z5.0000


;No. 6: Part 3
G01 X115.9296 Y241.9070 Z5.0000
G01 Z0.5000
G01 Z-1.5000 F180
G01 X114.7500 F1200
G01 Y248.6870
G03 X112.5105 Y249.9922 I-1.5001 J-0.0001
G01 X104.2780 Y245.4718
G03 X103.5035 Y244.2599 I0.7220 J-1.3148
G01 X103.5000 Y244.1370
G01 Y229.1570
G01 X103.5075 Y229.0072
G03 X105.0200 Y227.6570 I1.4928 J0.1499
G01 X139.7267
G01 Z0.0000
G01 X144.2267
G01 Z-1.5000 F180
G01 X205.0000 F1200
G03 X206.5000 Y229.1770 I-0.0001 J1.5002
G01 Y240.1922
G01 Z0.0000
G01 Y244.1570
G03 X206.4037 Y244.6805 I-1.4370 J0.0063
G01 Z-1.5000 F180
G03 X205.7044 Y245.4815 I-1.3951 J-0.5123 F1200
G01 X197.4720 Y250.0018
G03 X195.2540 Y248.7963 I-0.7220 J-1.3148
G01 X195.2500 Y248.6670
G01 Y241.9070
G01 X191.7500
G01 Y252.0570
G03 X190.8293 Y253.4408 I-1.5004 J-0.0001
G01 X178.0977 Y258.9718
G03 X176.0049 Y257.7168 I-0.5977 J-1.3758
G01 X176.0000 Y257.5760
G01 Y241.9070
G01 X172.5000
G01 Y244.2530
G01 Z0.0000
G01 Y248.7530
G01 Z-1.5000 F180
G01 Y259.6450 F1200
G03 X171.2234 Y261.1284 I-1.5003 J-0.0001
G01 X158.4931 Y263.2192
G03 X156.7508 Y261.7894 I-0.2431 J-1.4802
G01 X156.7500 Y241.9070
G01 X153.2500
G01 Y261.7390
G03 X151.6289 Y263.2322 I-1.4969 J0.0015
G01 Z0.0000
G01 X151.5567 Y263.2265
G01 X151.4872 Y263.2159
G01 X147.1875 Y262.5098
G01 Z-1.5000 F180
G01 X138.7569 Y261.1252 F1200
G03 X137.5000 Y259.6570 I0.2431 J-1.4802
G01 Y241.9070
G01 X134.0000
G01 Y257.5960
G03 X131.8840 Y258.9638 I-1.5001 J-0.0001
G01 X119.1523 Y253.4328
G03 X118.2528 Y252.1484 I0.5977 J-1.3758
G01 X118.2500 Y252.0370
G01 Y244.0866
G01 Z0.0000
G01 Y241.9070
G01 X115.9296
G01 Z-1.0000
G01 Z-3.0000 F180
G01 X114.7500 F1200
G01 Y248.6870
G03 X112.5105 Y249.9922 I-1.5001 J-0.0001
G01 X104.2780 Y245.4718
G03 X103.5035 Y244.2599 I0.7220 J-1.3148
G01 X103.5000 Y244.1370
G01 Y229.1570
G01 X103.5075 Y229.0072
G03 X105.0200 Y227.6570 I1.4928 J0.1499
G01 X139.7267
G01 Z0.0000
G01 X144.2267
G01 Z-1.0000
G01 Z-3.0000 F180
G01 X205.0000 F1200
G03 X206.5000 Y229.1770 I-0.0001 J1.5002
G01 Y240.1922
G01 Z0.0000
G01 Y244.1570
G03 X206.4037 Y244.6805 I-1.4370 J0.0063
G01 Z-1.0000
G01 Z-3.0000 F180
G03 X205.7044 Y245.4815 I-1.3951 J-0.5123 F1200
G01 X197.4720 Y250.0018
G03 X195.2540 Y248.7963 I-0.7220 J-1.3148
G01 X195.2500 Y248.6670
G01 Y241.9070
G01 X191.7500
G01 Y252.0570
G03 X190.8293 Y253.4408 I-1.5004 J-0.0001
G01 X178.0977 Y258.9718
G03 X176.0049 Y257.7168 I-0.5977 J-1.3758
G01 X176.0000 Y257.5760
G01 Y241.9070
G01 X172.5000
G01 Y244.2530
G01 Z0.0000
G01 Y248.7530
G01 Z-1.0000
G01 Z-3.0000 F180
G01 Y259.6450 F1200
G03 X171.2234 Y261.1284 I-1.5003 J-0.0001
G01 X158.4931 Y263.2192
G03 X156.7508 Y261.7894 I-0.2431 J-1.4802
G01 X156.7500 Y241.9070
G01 X153.2500
G01 Y261.7390
G03 X151.6289 Y263.2322 I-1.4969 J0.0015
G01 Z0.0000
G01 X151.5567 Y263.2265
G01 X151.4872 Y263.2159
G01 X147.1875 Y262.5098
G01 Z-1.0000
G01 Z-3.0000 F180
G01 X138.7569 Y261.1252 F1200
G03 X137.5000 Y259.6570 I0.2431 J-1.4802
G01 Y241.9070
G01 X134.0000
G01 Y257.5960
G03 X131.8840 Y258.9638 I-1.5001 J-0.0001
G01 X119.1523 Y253.4328
G03 X118.2528 Y252.1484 I0.5977 J-1.3758
G01 X118.2500 Y252.0370
G01 Y244.0866
G01 Z0.0000
G01 Y241.9070
G01 X115.9296
G01 Z-2.5000
G01 Z-4.5000 F180
G01 X114.7500 F1200
G01 Y248.6870
G03 X112.5105 Y249.9922 I-1.5001 J-0.0001
G01 X104.2780 Y245.4718
G03 X103.5035 Y244.2599 I0.7220 J-1.3148
G01 X103.5000 Y244.1370
G01 Y229.1570
G01 X103.5075 Y229.0072
G03 X105.0200 Y227.6570 I1.4928 J0.1499
G01 X139.7267
G01 Z0.0000
G01 X144.2267
G01 Z-2.5000
G01 Z-4.5000 F180
G01 X205.0000 F1200
G03 X206.5000 Y229.1770 I-0.0001 J1.5002
G01 Y240.1922
G01 Z0.0000
G01 Y244.1570
G03 X206.4037 Y244.6805 I-1.4370 J0.0063
G01 Z-2.5000
G01 Z-4.5000 F180
G03 X205.7044 Y245.4815 I-1.3951 J-0.5123 F1200
G01 X197.4720 Y250.0018
G03 X195.2540 Y248.7963 I-0.7220 J-1.3148
G01 X195.2500 Y248.6670
G01 Y241.9070
G01 X191.7500
G01 Y252.0570
G03 X190.8293 Y253.4408 I-1.5004 J-0.0001
G01 X178.0977 Y258.9718
G03 X176.0049 Y257.7168 I-0.5977 J-1.3758
G01 X176.0000 Y257.5760
G01 Y241.9070
G01 X172.5000
G01 Y244.2530
G01 Z0.0000
G01 Y248.7530
G01 Z-2.5000
G01 Z-4.5000 F180
G01 Y259.6450 F1200
G03 X171.2234 Y261.1284 I-1.5003 J-0.0001
G01 X158.4931 Y263.2192
G03 X156.7508 Y261.7894 I-0.2431 J-1.4802
G01 X156.7500 Y241.9070
G01 X153.2500
G01 Y261.7390
G03 X151.6289 Y263.2322 I-1.4969 J0.0015
G01 Z0.0000
G01 X151.5567 Y263.2265
G01 X151.4872 Y263.2159
G01 X147.1875 Y262.5098
G01 Z-2.5000
G01 Z-4.5000 F180
G01 X138.7569 Y261.1252 F1200
G03 X137.5000 Y259.6570 I0.2431 J-1.4802
G01 Y241.9070
G01 X134.0000
G01 Y257.5960
G03 X131.8840 Y258.9638 I-1.5001 J-0.0001
G01 X119.1523 Y253.4328
G03 X118.2528 Y252.1484 I0.5977 J-1.3758
G01 X118.2500 Y252.0370
G01 Y244.0866
G01 Z0.0000
G01 Y241.9070
G01 X115.9296
G01 Z-4.0000
G01 Z-6.0000 F180
G01 X114.7500 F1200
G01 Y248.6870
G03 X112.5105 Y249.9922 I-1.5001 J-0.0001
G01 X104.2780 Y245.4718
G03 X103.5035 Y244.2599 I0.7220 J-1.3148
G01 X103.5000 Y244.1370
G01 Y229.1570
G01 X103.5075 Y229.0072
G03 X105.0200 Y227.6570 I1.4928 J0.1499
G01 X139.7267
G01 Z0.0000
G01 X144.2267
G01 Z-4.0000
G01 Z-6.0000 F180
G01 X205.0000 F1200
G03 X206.5000 Y229.1770 I-0.0001 J1.5002
G01 Y240.1922
G01 Z0.0000
G01 Y244.1570
G03 X206.4037 Y244.6805 I-1.4370 J0.0063
G01 Z-4.0000
G01 Z-6.0000 F180
G03 X205.7044 Y245.4815 I-1.3951 J-0.5123 F1200
G01 X197.4720 Y250.0018
G03 X195.2540 Y248.7963 I-0.7220 J-1.3148
G01 X195.2500 Y248.6670
G01 Y241.9070
G01 X191.7500
G01 Y252.0570
G03 X190.8293 Y253.4408 I-1.5004 J-0.0001
G01 X178.0977 Y258.9718
G03 X176.0049 Y257.7168 I-0.5977 J-1.3758
G01 X176.0000 Y257.5760
G01 Y241.9070
G01 X172.5000
G01 Y244.2530
G01 Z0.0000
G01 Y248.7530
G01 Z-4.0000
G01 Z-6.0000 F180
G01 Y259.6450 F1200
G03 X171.2234 Y261.1284 I-1.5003 J-0.0001
G01 X158.4931 Y263.2192
G03 X156.7508 Y261.7894 I-0.2431 J-1.4802
G01 X156.7500 Y241.9070
G01 X153.2500
G01 Y261.7390
G03 X151.6289 Y263.2322 I-1.4969 J0.0015
G01 Z0.0000
G01 X151.5567 Y263.2265
G01 X151.4872 Y263.2159
G01 X147.1875 Y262.5098
G01 Z-4.0000
G01 Z-6.0000 F180
G01 X138.7569 Y261.1252 F1200
G03 X137.5000 Y259.6570 I0.2431 J-1.4802
G01 Y241.9070
G01 X134.0000
G01 Y257.5960
G03 X131.8840 Y258.9638 I-1.5001 J-0.0001
G01 X119.1523 Y253.4328
G03 X118.2528 Y252.1484 I0.5977 J-1.3758
G01 X118.2500 Y252.0370
G01 Y244.0866
G01 Z0.0000
G01 Y241.9070
G01 X115.9296
G01 Z-5.5000
G01 Z-7.0000 F180
G01 X114.7500 F1200
G01 Y248.6870
G03 X112.5105 Y249.9922 I-1.5001 J-0.0001
G01 X104.2780 Y245.4718
G03 X103.5035 Y244.2599 I0.7220 J-1.3148
G01 X103.5000 Y244.1370
G01 Y229.1570
G01 X103.5075 Y229.0072
G03 X105.0200 Y227.6570 I1.4928 J0.1499
G01 X139.7267
G01 Z0.0000
G01 X144.2267
G01 Z-5.5000
G01 Z-7.0000 F180
G01 X205.0000 F1200
G03 X206.5000 Y229.1770 I-0.0001 J1.5002
G01 Y240.1922
G01 Z0.0000
G01 Y244.1570
G03 X206.4037 Y244.6805 I-1.4370 J0.0063
G01 Z-5.5000
G01 Z-7.0000 F180
G03 X205.7044 Y245.4815 I-1.3951 J-0.5123 F1200
G01 X197.4720 Y250.0018
G03 X195.2540 Y248.7963 I-0.7220 J-1.3148
G01 X195.2500 Y248.6670
G01 Y241.9070
G01 X191.7500
G01 Y252.0570
G03 X190.8293 Y253.4408 I-1.5004 J-0.0001
G01 X178.0977 Y258.9718
G03 X176.0049 Y257.7168 I-0.5977 J-1.3758
G01 X176.0000 Y257.5760
G01 Y241.9070
G01 X172.5000
G01 Y244.2530
G01 Z0.0000
G01 Y248.7530
G01 Z-5.5000
G01 Z-7.0000 F180
G01 Y259.6450 F1200
G03 X171.2234 Y261.1284 I-1.5003 J-0.0001
G01 X158.4931 Y263.2192
G03 X156.7508 Y261.7894 I-0.2431 J-1.4802
G01 X156.7500 Y241.9070
G01 X153.2500
G01 Y261.7390
G03 X151.6289 Y263.2322 I-1.4969 J0.0015
G01 Z0.0000
G01 X151.5567 Y263.2265
G01 X151.4872 Y263.2159
G01 X147.1875 Y262.5098
G01 Z-5.5000
G01 Z-7.0000 F180
G01 X138.7569 Y261.1252 F1200
G03 X137.5000 Y259.6570 I0.2431 J-1.4802
G01 Y241.9070
G01 X134.0000
G01 Y257.5960
G03 X131.8840 Y258.9638 I-1.5001 J-0.0001
G01 X119.1523 Y253.4328
G03 X118.2528 Y252.1484 I0.5977 J-1.3758
G01 X118.2500 Y252.0370
G01 Y244.0866
G01 Z0.0000
G01 Y241.9070
G01 X115.9296
G01 Z5.0000


;No. 7: Part 5
G01 X118.2500 Y186.1143 Z5.0000
G01 Z0.5000
G01 Z-1.5000 F180
G01 Y180.9890 F1200
G01 X114.7500
G01 Y193.7810
G03 X112.0564 Y194.6897 I-1.5001 J-0.0001
G01 X103.8187 Y184.1634
G03 X103.5031 Y183.3350 I1.1813 J-0.9244
G01 X103.5000 Y183.2190
G01 Y168.2390
G01 X103.5075 Y168.0892
G03 X105.0200 Y166.7390 I1.4928 J0.1499
G01 X157.1589
G01 Z0.0000
G01 X161.6589
G01 Z-1.5000 F180
G01 X205.0000 F1200
G03 X206.5000 Y168.2590 I-0.0001 J1.5002
G01 Y183.2390
G03 X206.1689 Y184.1792 I-1.5014 J-0.0003
G01 X197.9313 Y194.7054
G03 X195.2545 Y193.8972 I-1.1813 J-0.9244
G01 X195.2500 Y193.7610
G01 Y180.9890
G01 X191.7500
G01 Y194.9321
G01 Z0.0000
G01 Y199.4321
G01 Z-1.5000 F180
G01 Y201.6240 F1200
G03 X191.3025 Y202.6930 I-1.5009 J-0.0002
G01 X178.5665 Y215.5708
G03 X176.0029 Y214.6085 I-1.0665 J-1.0548
G01 X176.0000 Y214.4960
G01 Y180.9890
G01 X172.5000
G01 Y219.2830
G03 X171.5435 Y220.6811 I-1.5000 J0.0000
G01 X165.1229 Y223.1355
G01 Z0.0000
G01 X160.9195 Y224.7424
G01 Z-1.5000 F180
G01 X158.7856 Y225.5581 F1200
G03 X156.7510 Y224.2109 I-0.5356 J-1.4011
G01 X156.7500 Y180.9890
G01 X153.2500
G01 Y224.1570
G03 X151.1957 Y225.5510 I-1.5002 J-0.0001
G01 X140.8439 Y221.5938
G01 Z0.0000
G01 X138.4644 Y220.6841
G03 X137.5000 Y219.2915 I0.5356 J-1.4011
G01 Y219.1382
G01 Z-1.5000 F180
G01 Y180.9890 F1200
G01 X134.0000
G01 Y214.5160
G03 X131.4194 Y215.5566 I-1.5001 J-0.0001
G01 X118.6835 Y202.6788
G03 X118.2548 Y201.7437 I1.0665 J-1.0548
G01 X118.2500 Y201.6040
G01 Y190.6143
G01 Z0.0000
G01 Y186.1143
G01 Z-1.0000
G01 Z-3.0000 F180
G01 Y180.9890 F1200
G01 X114.7500
G01 Y193.7810
G03 X112.0564 Y194.6897 I-1.5001 J-0.0001
G01 X103.8187 Y184.1634
G03 X103.5031 Y183.3350 I1.1813 J-0.9244
G01 X103.5000 Y183.2190
G01 Y168.2390
G01 X103.5075 Y168.0892
G03 X105.0200 Y166.7390 I1.4928 J0.1499
G01 X157.1589
G01 Z0.0000
G01 X161.6589
G01 Z-1.0000
G01 Z-3.0000 F180
G01 X205.0000 F1200
G03 X206.5000 Y168.2590 I-0.0001 J1.5002
G01 Y183.2390
G03 X206.1689 Y184.1792 I-1.5014 J-0.0003
G01 X197.9313 Y194.7054
G03 X195.2545 Y193.8972 I-1.1813 J-0.9244
G01 X195.2500 Y193.7610
G01 Y180.9890
G01 X191.7500
G01 Y194.9321
G01 Z0.0000
G01 Y199.4321
G01 Z-1.0000
G01 Z-3.0000 F180
G01 Y201.6240 F1200
G03 X191.3025 Y202.6930 I-1.5009 J-0.0002
G01 X178.5665 Y215.5708
G03 X176.0029 Y214.6085 I-1.0665 J-1.0548
G01 X176.0000 Y214.4960
G01 Y180.9890
G01 X172.5000
G01 Y219.2830
G03 X171.5435 Y220.6811 I-1.5000 J0.0000
G01 X165.1229 Y223.1355
G01 Z0.0000
G01 X160.9195 Y224.7424
G01 Z-1.0000
G01 Z-3.0000 F180
G01 X158.7856 Y225.5581 F1200
G03 X156.7510 Y224.2109 I-0.5356 J-1.4011
G01 X156.7500 Y180.9890
G01 X153.2500
G01 Y224.1570
G03 X151.1957 Y225.5510 I-1.5002 J-0.0001
G01 X140.8439 Y221.5938
G01 Z0.0000
G01 X138.4644 Y220.6841
G03 X137.5000 Y219.2915 I0.5356 J-1.4011
G01 Y219.1382
G01 Z-1.0000
G01 Z-3.0000 F180
G01 Y180.9890 F1200
G01 X134.0000
G01 Y214.5160
G03 X131.4194 Y215.5566 I-1.5001 J-0.0001
G01 X118.6835 Y202.6788
G03 X118.2548 Y201.7437 I1.0665 J-1.0548
G01 X118.2500 Y201.6040
G01 Y190.6143
G01 Z0.0000
G01 Y186.1143
G01 Z-2.5000
G01 Z-4.5000 F180
G01 Y180.9890 F1200
G01 X114.7500
G01 Y193.7810
G03 X112.0564 Y194.6897 I-1.5001 J-0.0001
G01 X103.8187 Y184.1634
G03 X103.5031 Y183.3350 I1.1813 J-0.9244
G01 X103.5000 Y183.2190
G01 Y168.2390
G01 X103.5075 Y168.0892
G03 X105.0200 Y166.7390 I1.4928 J0.1499
G01 X157.1589
G01 Z0.0000
G01 X161.6589
G01 Z-2.5000
G01 Z-4.5000 F180
G01 X205.0000 F1200
G03 X206.5000 Y168.2590 I-0.0001 J1.5002
G01 Y183.2390
G03 X206.1689 Y184.1792 I-1.5014 J-0.0003
G01 X197.9313 Y194.7054
G03 X195.2545 Y193.8972 I-1.1813 J-0.9244
G01 X195.2500 Y193.7610
G01 Y180.9890
G01 X191.7500
G01 Y194.9321
G01 Z0.0000
G01 Y199.4321
G01 Z-2.5000
G01 Z-4.5000 F180
G01 Y201.6240 F1200
G03 X191.3025 Y202.6930 I-1.5009 J-0.0002
G01 X178.5665 Y215.5708
G03 X176.0029 Y214.6085 I-1.0665 J-1.0548
G01 X176.0000 Y214.4960
G01 Y180.9890
G01 X172.5000
G01 Y219.2830
G03 X171.5435 Y220.6811 I-1.5000 J0.0000
G01 X165.1229 Y223.1355
G01 Z0.0000
G01 X160.9195 Y224.7424
G01 Z-2.5000
G01 Z-4.5000 F180
G01 X158.7856 Y225.5581 F1200
G03 X156.7510 Y224.2109 I-0.5356 J-1.4011
G01 X156.7500 Y180.9890
G01 X153.2500
G01 Y224.1570
G03 X151.1957 Y225.5510 I-1.5002 J-0.0001
G01 X140.8439 Y221.5938
G01 Z0.0000
G01 X138.4644 Y220.6841
G03 X137.5000 Y219.2915 I0.5356 J-1.4011
G01 Y219.1382
G01 Z-2.5000
G01 Z-4.5000 F180
G01 Y180.9890 F1200
G01 X134.0000
G01 Y214.5160
G03 X131.4194 Y215.5566 I-1.5001 J-0.0001
G01 X118.6835 Y202.6788
G03 X118.2548 Y201.7437 I1.0665 J-1.0548
G01 X118.2500 Y201.6040
G01 Y190.6143
G01 Z0.0000
G01 Y186.1143
G01 Z-4.0000
G01 Z-6.0000 F180
G01 Y180.9890 F1200
G01 X114.7500
G01 Y193.7810
G03 X112.0564 Y194.6897 I-1.5001 J-0.0001
G01 X103.8187 Y184.1634
G03 X103.5031 Y183.3350 I1.1813 J-0.9244
G01 X103.5000 Y183.2190
G01 Y168.2390
G01 X103.5075 Y168.0892
G03 X105.0200 Y166.7390 I1.4928 J0.1499
G01 X157.1589
G01 Z0.0000
G01 X161.6589
G01 Z-4.0000
G01 Z-6.0000 F180
G01 X205.0000 F1200
G03 X206.5000 Y168.2590 I-0.0001 J1.5002
G01 Y183.2390
G03 X206.1689 Y184.1792 I-1.5014 J-0.0003
G01 X197.9313 Y194.7054
G03 X195.2545 Y193.8972 I-1.1813 J-0.9244
G01 X195.2500 Y193.7610
G01 Y180.9890
G01 X191.7500
G01 Y194.9321
G01 Z0.0000
G01 Y199.4321
G01 Z-4.0000
G01 Z-6.0000 F180
G01 Y201.6240 F1200
G03 X191.3025 Y202.6930 I-1.5009 J-0.0002
G01 X178.5665 Y215.5708
G03 X176.0029 Y214.6085 I-1.0665 J-1.0548
G01 X176.0000 Y214.4960
G01 Y180.9890
G01 X172.5000
G01 Y219.2830
G03 X171.5435 Y220.6811 I-1.5000 J0.0000
G01 X165.1229 Y223.1355
G01 Z0.0000
G01 X160.9195 Y224.7424
G01 Z-4.0000
G01 Z-6.0000 F180
G01 X158.7856 Y225.5581 F1200
G03 X156.7510 Y224.2109 I-0.5356 J-1.4011
G01 X156.7500 Y180.9890
G01 X153.2500
G01 Y224.1570
G03 X151.1957 Y225.5510 I-1.5002 J-0.0001
G01 X140.8439 Y221.5938
G01 Z0.0000
G01 X138.4644 Y220.6841
G03 X137.5000 Y219.2915 I0.5356 J-1.4011
G01 Y219.1382
G01 Z-4.0000
G01 Z-6.0000 F180
G01 Y180.9890 F1200
G01 X134.0000
G01 Y214.5160
G03 X131.4194 Y215.5566 I-1.5001 J-0.0001
G01 X118.6835 Y202.6788
G03 X118.2548 Y201.7437 I1.0665 J-1.0548
G01 X118.2500 Y201.6040
G01 Y190.6143
G01 Z0.0000
G01 Y186.1143
G01 Z-5.5000
G01 Z-7.0000 F180
G01 Y180.9890 F1200
G01 X114.7500
G01 Y193.7810
G03 X112.0564 Y194.6897 I-1.5001 J-0.0001
G01 X103.8187 Y184.1634
G03 X103.5031 Y183.3350 I1.1813 J-0.9244
G01 X103.5000 Y183.2190
G01 Y168.2390
G01 X103.5075 Y168.0892
G03 X105.0200 Y166.7390 I1.4928 J0.1499
G01 X157.1589
G01 Z0.0000
G01 X161.6589
G01 Z-5.5000
G01 Z-7.0000 F180
G01 X205.0000 F1200
G03 X206.5000 Y168.2590 I-0.0001 J1.5002
G01 Y183.2390
G03 X206.1689 Y184.1792 I-1.5014 J-0.0003
G01 X197.9313 Y194.7054
G03 X195.2545 Y193.8972 I-1.1813 J-0.9244
G01 X195.2500 Y193.7610
G01 Y180.9890
G01 X191.7500
G01 Y194.9321
G01 Z0.0000
G01 Y199.4321
G01 Z-5.5000
G01 Z-7.0000 F180
G01 Y201.6240 F1200
G03 X191.3025 Y202.6930 I-1.5009 J-0.0002
G01 X178.5665 Y215.5708
G03 X176.0029 Y214.6085 I-1.0665 J-1.0548
G01 X176.0000 Y214.4960
G01 Y180.9890
G01 X172.5000
G01 Y219.2830
G03 X171.5435 Y220.6811 I-1.5000 J0.0000
G01 X165.1229 Y223.1355
G01 Z0.0000
G01 X160.9195 Y224.7424
G01 Z-5.5000
G01 Z-7.0000 F180
G01 X158.7856 Y225.5581 F1200
G03 X156.7510 Y224.2109 I-0.5356 J-1.4011
G01 X156.7500 Y180.9890
G01 X153.2500
G01 Y224.1570
G03 X151.1957 Y225.5510 I-1.5002 J-0.0001
G01 X140.8439 Y221.5938
G01 Z0.0000
G01 X138.4644 Y220.6841
G03 X137.5000 Y219.2915 I0.5356 J-1.4011
G01 Y219.1382
G01 Z-5.5000
G01 Z-7.0000 F180
G01 Y180.9890 F1200
G01 X134.0000
G01 Y214.5160
G03 X131.4194 Y215.5566 I-1.5001 J-0.0001
G01 X118.6835 Y202.6788
G03 X118.2548 Y201.7437 I1.0665 J-1.0548
G01 X118.2500 Y201.6040
G01 Y190.6143
G01 Z0.0000
G01 Y186.1143
G01 Z5.0000


;No. 8: Part 7
G01 X118.2500 Y119.0300 Z5.0000
G01 Z0.5000
G01 Z-1.5000 F180
G01 Y111.2500 F1200
G01 X114.7500
G01 Y126.3140
G03 X111.9780 Y127.1092 I-1.5001 J-0.0001
G01 X103.7388 Y114.3120
G03 X103.5039 Y113.6079 I1.2612 J-0.8120
G01 X103.5000 Y113.4800
G01 Y98.4995
G01 X103.5075 Y98.3497
G03 X105.0200 Y96.9995 I1.4928 J0.1499
G01 X163.9399
G01 Z0.0000
G01 X168.4399
G01 Z-1.5000 F180
G01 X205.0000 F1200
G03 X206.5000 Y98.5195 I-0.0001 J1.5002
G01 Y113.5000
G03 X206.2504 Y114.3288 I-1.5025 J-0.0005
G01 X198.0112 Y127.1260
G03 X195.2536 Y126.4183 I-1.2612 J-0.8120
G01 X195.2500 Y126.2940
G01 Y111.2500
G01 X191.7500
G01 Y135.8480
G03 X191.4009 Y136.8101 I-1.5013 J-0.0003
G01 X188.5498 Y140.3147
G01 Z0.0000
G01 X185.7100 Y143.8054
G01 Z-1.5000 F180
G01 X178.6636 Y152.4666 F1200
G03 X176.0026 Y151.6079 I-1.1636 J-0.9466
G01 X176.0000 Y151.5000
G01 Y111.2500
G01 X172.5000
G01 Y157.3150
G03 X171.6804 Y158.6518 I-1.5000 J0.0000
G01 X158.8820 Y164.5993
G03 X156.9947 Y164.0574 I-0.6319 J-1.3566
G01 Z0.0000
G03 X156.7500 Y163.2476 I1.2410 J-0.8168
G01 Y159.6052
G01 Z-1.5000 F180
G01 Y111.2500 F1200
G01 X153.2500
G01 Y163.2390
G03 X151.1258 Y164.6029 I-1.5000 J0.0000
G01 X138.3680 Y158.6753
G03 X137.5006 Y157.3385 I0.6311 J-1.3593
G01 Z0.0000
G01 X137.5000 Y157.2950
G01 Y152.8385
G01 Z-1.5000 F180
G01 Y111.2500 F1200
G01 X134.0000
G01 Y151.5200
G03 X131.3238 Y152.4511 I-1.5001 J-0.0001
G01 X118.5864 Y136.7946
G03 X118.2552 Y135.9723 I1.1636 J-0.9466
G01 X118.2500 Y135.8280
G01 Y123.5300
G01 Z0.0000
G01 Y119.0300
G01 Z-1.0000
G01 Z-3.0000 F180
G01 Y111.2500 F1200
G01 X114.7500
G01 Y126.3140
G03 X111.9780 Y127.1092 I-1.5001 J-0.0001
G01 X103.7388 Y114.3120
G03 X103.5039 Y113.6079 I1.2612 J-0.8120
G01 X103.5000 Y113.4800
G01 Y98.4995
G01 X103.5075 Y98.3497
G03 X105.0200 Y96.9995 I1.4928 J0.1499
G01 X163.9399
G01 Z0.0000
G01 X168.4399
G01 Z-1.0000
G01 Z-3.0000 F180
G01 X205.0000 F1200
G03 X206.5000 Y98.5195 I-0.0001 J1.5002
G01 Y113.5000
G03 X206.2504 Y114.3288 I-1.5025 J-0.0005
G01 X198.0112 Y127.1260
G03 X195.2536 Y126.4183 I-1.2612 J-0.8120
G01 X195.2500 Y126.2940
G01 Y111.2500
G01 X191.7500
G01 Y135.8480
G03 X191.4009 Y136.8101 I-1.5013 J-0.0003
G01 X188.5498 Y140.3147
G01 Z0.0000
G01 X185.7100 Y143.8054
G01 Z-1.0000
G01 Z-3.0000 F180
G01 X178.6636 Y152.4666 F1200
G03 X176.0026 Y151.6079 I-1.1636 J-0.9466
G01 X176.0000 Y151.5000
G01 Y111.2500
G01 X172.5000
G01 Y157.3150
G03 X171.6804 Y158.6518 I-1.5000 J0.0000
G01 X158.8820 Y164.5993
G03 X156.9947 Y164.0574 I-0.6319 J-1.3566
G01 Z0.0000
G03 X156.7500 Y163.2476 I1.2410 J-0.8168
G01 Y159.6052
G01 Z-1.0000
G01 Z-3.0000 F180
G01 Y111.2500 F1200
G01 X153.2500
G01 Y163.2390
G03 X151.1258 Y164.6029 I-1.5000 J0.0000
G01 X138.3680 Y158.6753
G03 X137.5006 Y157.3385 I0.6311 J-1.3593
G01 Z0.0000
G01 X137.5000 Y157.2950
G01 Y152.8385
G01 Z-1.0000
G01 Z-3.0000 F180
G01 Y111.2500 F1200
G01 X134.0000
G01 Y151.5200
G03 X131.3238 Y152.4511 I-1.5001 J-0.0001
G01 X118.5864 Y136.7946
G03 X118.2552 Y135.9723 I1.1636 J-0.9466
G01 X118.2500 Y135.8280
G01 Y123.5300
G01 Z0.0000
G01 Y119.0300
G01 Z-2.5000
G01 Z-4.5000 F180
G01 Y111.2500 F1200
G01 X114.7500
G01 Y126.3140
G03 X111.9780 Y127.1092 I-1.5001 J-0.0001
G01 X103.7388 Y114.3120
G03 X103.5039 Y113.6079 I1.2612 J-0.8120
G01 X103.5000 Y113.4800
G01 Y98.4995
G01 X103.5075 Y98.3497
G03 X105.0200 Y96.9995 I1.4928 J0.1499
G01 X163.9399
G01 Z0.0000
G01 X168.4399
G01 Z-2.5000
G01 Z-4.5000 F180
G01 X205.0000 F1200
G03 X206.5000 Y98.5195 I-0.0001 J1.5002
G01 Y113.5000
G03 X206.2504 Y114.3288 I-1.5025 J-0.0005
G01 X198.0112 Y127.1260
G03 X195.2536 Y126.4183 I-1.2612 J-0.8120
G01 X195.2500 Y126.2940
G01 Y111.2500
G01 X191.7500
G01 Y135.8480
G03 X191.4009 Y136.8101 I-1.5013 J-0.0003
G01 X188.5498 Y140.3147
G01 Z0.0000
G01 X185.7100 Y143.8054
G01 Z-2.5000
G01 Z-4.5000 F180
G01 X178.6636 Y152.4666 F1200
G03 X176.0026 Y151.6079 I-1.1636 J-0.9466
G01 X176.0000 Y151.5000
G01 Y111.2500
G01 X172.5000
G01 Y157.3150
G03 X171.6804 Y158.6518 I-1.5000 J0.0000
G01 X158.8820 Y164.5993
G03 X156.9947 Y164.0574 I-0.6319 J-1.3566
G01 Z0.0000
G03 X156.7500 Y163.2476 I1.2410 J-0.8168
G01 Y159.6052
G01 Z-2.5000
G01 Z-4.5000 F180
G01 Y111.2500 F1200
G01 X153.2500
G01 Y163.2390
G03 X151.1258 Y164.6029 I-1.5000 J0.0000
G01 X138.3680 Y158.6753
G03 X137.5006 Y157.3385 I0.6311 J-1.3593
G01 Z0.0000
G01 X137.5000 Y157.2950
G01 Y152.8385
G01 Z-2.5000
G01 Z-4.5000 F180
G01 Y111.2500 F1200
G01 X134.0000
G01 Y151.5200
G03 X131.3238 Y152.4511 I-1.5001 J-0.0001
G01 X118.5864 Y136.7946
G03 X118.2552 Y135.9723 I1.1636 J-0.9466
G01 X118.2500 Y135.8280
G01 Y123.5300
G01 Z0.0000
G01 Y119.0300
G01 Z-4.0000
G01 Z-6.0000 F180
G01 Y111.2500 F1200
G01 X114.7500
G01 Y126.3140
G03 X111.9780 Y127.1092 I-1.5001 J-0.0001
G01 X103.7388 Y114.3120
G03 X103.5039 Y113.6079 I1.2612 J-0.8120
G01 X103.5000 Y113.4800
G01 Y98.4995
G01 X103.5075 Y98.3497
G03 X105.0200 Y96.9995 I1.4928 J0.1499
G01 X163.9399
G01 Z0.0000
G01 X168.4399
G01 Z-4.0000
G01 Z-6.0000 F180
G01 X205.0000 F1200
G03 X206.5000 Y98.5195 I-0.0001 J1.5002
G01 Y113.5000
G03 X206.2504 Y114.3288 I-1.5025 J-0.0005
G01 X198.0112 Y127.1260
G03 X195.2536 Y126.4183 I-1.2612 J-0.8120
G01 X195.2500 Y126.2940
G01 Y111.2500
G01 X191.7500
G01 Y135.8480
G03 X191.4009 Y136.8101 I-1.5013 J-0.0003
G01 X188.5498 Y140.3147
G01 Z0.0000
G01 X185.7100 Y143.8054
G01 Z-4.0000
G01 Z-6.0000 F180
G01 X178.6636 Y152.4666 F1200
G03 X176.0026 Y151.6079 I-1.1636 J-0.9466
G01 X176.0000 Y151.5000
G01 Y111.2500
G01 X172.5000
G01 Y157.3150
G03 X171.6804 Y158.6518 I-1.5000 J0.0000
G01 X158.8820 Y164.5993
G03 X156.9947 Y164.0574 I-0.6319 J-1.3566
G01 Z0.0000
G03 X156.7500 Y163.2476 I1.2410 J-0.8168
G01 Y159.6052
G01 Z-4.0000
G01 Z-6.0000 F180
G01 Y111.2500 F1200
G01 X153.2500
G01 Y163.2390
G03 X151.1258 Y164.6029 I-1.5000 J0.0000
G01 X138.3680 Y158.6753
G03 X137.5006 Y157.3385 I0.6311 J-1.3593
G01 Z0.0000
G01 X137.5000 Y157.2950
G01 Y152.8385
G01 Z-4.0000
G01 Z-6.0000 F180
G01 Y111.2500 F1200
G01 X134.0000
G01 Y151.5200
G03 X131.3238 Y152.4511 I-1.5001 J-0.0001
G01 X118.5864 Y136.7946
G03 X118.2552 Y135.9723 I1.1636 J-0.9466
G01 X118.2500 Y135.8280
G01 Y123.5300
G01 Z0.0000
G01 Y119.0300
G01 Z-5.5000
G01 Z-7.0000 F180
G01 Y111.2500 F1200
G01 X114.7500
G01 Y126.3140
G03 X111.9780 Y127.1092 I-1.5001 J-0.0001
G01 X103.7388 Y114.3120
G03 X103.5039 Y113.6079 I1.2612 J-0.8120
G01 X103.5000 Y113.4800
G01 Y98.4995
G01 X103.5075 Y98.3497
G03 X105.0200 Y96.9995 I1.4928 J0.1499
G01 X163.9399
G01 Z0.0000
G01 X168.4399
G01 Z-5.5000
G01 Z-7.0000 F180
G01 X205.0000 F1200
G03 X206.5000 Y98.5195 I-0.0001 J1.5002
G01 Y113.5000
G03 X206.2504 Y114.3288 I-1.5025 J-0.0005
G01 X198.0112 Y127.1260
G03 X195.2536 Y126.4183 I-1.2612 J-0.8120
G01 X195.2500 Y126.2940
G01 Y111.2500
G01 X191.7500
G01 Y135.8480
G03 X191.4009 Y136.8101 I-1.5013 J-0.0003
G01 X188.5498 Y140.3147
G01 Z0.0000
G01 X185.7100 Y143.8054
G01 Z-5.5000
G01 Z-7.0000 F180
G01 X178.6636 Y152.4666 F1200
G03 X176.0026 Y151.6079 I-1.1636 J-0.9466
G01 X176.0000 Y151.5000
G01 Y111.2500
G01 X172.5000
G01 Y157.3150
G03 X171.6804 Y158.6518 I-1.5000 J0.0000
G01 X158.8820 Y164.5993
G03 X156.9947 Y164.0574 I-0.6319 J-1.3566
G01 Z0.0000
G03 X156.7500 Y163.2476 I1.2410 J-0.8168
G01 Y159.6052
G01 Z-5.5000
G01 Z-7.0000 F180
G01 Y111.2500 F1200
G01 X153.2500
G01 Y163.2390
G03 X151.1258 Y164.6029 I-1.5000 J0.0000
G01 X138.3680 Y158.6753
G03 X137.5006 Y157.3385 I0.6311 J-1.3593
G01 Z0.0000
G01 X137.5000 Y157.2950
G01 Y152.8385
G01 Z-5.5000
G01 Z-7.0000 F180
G01 Y111.2500 F1200
G01 X134.0000
G01 Y151.5200
G03 X131.3238 Y152.4511 I-1.5001 J-0.0001
G01 X118.5864 Y136.7946
G03 X118.2552 Y135.9723 I1.1636 J-0.9466
G01 X118.2500 Y135.8280
G01 Y123.5300
G01 Z0.0000
G01 Y119.0300
G01 Z5.0000


;No. 9: Part 9
G01 X118.2500 Y55.4574 Z5.0000
G01 Z0.5000
G01 Z-1.5000 F180
G01 Y50.3317 F1200
G01 X114.7500
G01 Y63.1234
G03 X112.0564 Y64.0321 I-1.5001 J-0.0001
G01 X103.8187 Y53.5062
G03 X103.5031 Y52.6777 I1.1813 J-0.9245
G01 X103.5000 Y52.5617
G01 Y37.5817
G01 X103.5075 Y37.4319
G03 X105.0200 Y36.0817 I1.4928 J0.1499
G01 X157.1588
G01 Z0.0000
G01 X161.6588
G01 Z-1.5000 F180
G01 X205.0000 F1200
G03 X206.5000 Y37.6017 I-0.0001 J1.5002
G01 Y52.5817
G03 X206.1689 Y53.5219 I-1.5014 J-0.0003
G01 X197.9313 Y64.0479
G03 X195.2545 Y63.2396 I-1.1813 J-0.9245
G01 X195.2500 Y63.1034
G01 Y50.3317
G01 X191.7500
G01 Y64.2750
G01 Z0.0000
G01 Y68.7750
G01 Z-1.5000 F180
G01 Y70.9668 F1200
G03 X191.3024 Y72.0358 I-1.5009 J-0.0002
G01 X178.5665 Y84.9135
G03 X176.0029 Y83.9512 I-1.0665 J-1.0548
G01 X176.0000 Y83.8387
G01 Y50.3317
G01 X172.5000
G01 Y88.6260
G03 X171.5435 Y90.0241 I-1.5000 J0.0000
G01 X165.1231 Y92.4782
G01 Z0.0000
G01 X160.9197 Y94.0849
G01 Z-1.5000 F180
G01 X158.7856 Y94.9006 F1200
G03 X156.7510 Y93.5533 I-0.5356 J-1.4011
G01 X156.7500 Y50.3317
G01 X153.2500
G01 Y93.4995
G03 X151.1958 Y94.8935 I-1.5002 J-0.0001
G01 X140.8438 Y90.9366
G01 Z0.0000
G01 X138.4644 Y90.0271
G03 X137.5000 Y88.6345 I0.5356 J-1.4011
G01 Y88.4811
G01 Z-1.5000 F180
G01 Y50.3317 F1200
G01 X134.0000
G01 Y83.8587
G03 X131.4194 Y84.8993 I-1.5001 J-0.0001
G01 X118.6835 Y72.0216
G03 X118.2548 Y71.0865 I1.0665 J-1.0548
G01 X118.2500 Y70.9468
G01 Y59.9574
G01 Z0.0000
G01 Y55.4574
G01 Z-1.0000
G01 Z-3.0000 F180
G01 Y50.3317 F1200
G01 X114.7500
G01 Y63.1234
G03 X112.0564 Y64.0321 I-1.5001 J-0.0001
G01 X103.8187 Y53.5062
G03 X103.5031 Y52.6777 I1.1813 J-0.9245
G01 X103.5000 Y52.5617
G01 Y37.5817
G01 X103.5075 Y37.4319
G03 X105.0200 Y36.0817 I1.4928 J0.1499
G01 X157.1588
G01 Z0.0000
G01 X161.6588
G01 Z-1.0000
G01 Z-3.0000 F180
G01 X205.0000 F1200
G03 X206.5000 Y37.6017 I-0.0001 J1.5002
G01 Y52.5817
G03 X206.1689 Y53.5219 I-1.5014 J-0.0003
G01 X197.9313 Y64.0479
G03 X195.2545 Y63.2396 I-1.1813 J-0.9245
G01 X195.2500 Y63.1034
G01 Y50.3317
G01 X191.7500
G01 Y64.2750
G01 Z0.0000
G01 Y68.7750
G01 Z-1.0000
G01 Z-3.0000 F180
G01 Y70.9668 F1200
G03 X191.3024 Y72.0358 I-1.5009 J-0.0002
G01 X178.5665 Y84.9135
G03 X176.0029 Y83.9512 I-1.0665 J-1.0548
G01 X176.0000 Y83.8387
G01 Y50.3317
G01 X172.5000
G01 Y88.6260
G03 X171.5435 Y90.0241 I-1.5000 J0.0000
G01 X165.1231 Y92.4782
G01 Z0.0000
G01 X160.9197 Y94.0849
G01 Z-1.0000
G01 Z-3.0000 F180
G01 X158.7856 Y94.9006 F1200
G03 X156.7510 Y93.5533 I-0.5356 J-1.4011
G01 X156.7500 Y50.3317
G01 X153.2500
G01 Y93.4995
G03 X151.1958 Y94.8935 I-1.5002 J-0.0001
G01 X140.8438 Y90.9366
G01 Z0.0000
G01 X138.4644 Y90.0271
G03 X137.5000 Y88.6345 I0.5356 J-1.4011
G01 Y88.4811
G01 Z-1.0000
G01 Z-3.0000 F180
G01 Y50.3317 F1200
G01 X134.0000
G01 Y83.8587
G03 X131.4194 Y84.8993 I-1.5001 J-0.0001
G01 X118.6835 Y72.0216
G03 X118.2548 Y71.0865 I1.0665 J-1.0548
G01 X118.2500 Y70.9468
G01 Y59.9574
G01 Z0.0000
G01 Y55.4574
G01 Z-2.5000
G01 Z-4.5000 F180
G01 Y50.3317 F1200
G01 X114.7500
G01 Y63.1234
G03 X112.0564 Y64.0321 I-1.5001 J-0.0001
G01 X103.8187 Y53.5062
G03 X103.5031 Y52.6777 I1.1813 J-0.9245
G01 X103.5000 Y52.5617
G01 Y37.5817
G01 X103.5075 Y37.4319
G03 X105.0200 Y36.0817 I1.4928 J0.1499
G01 X157.1588
G01 Z0.0000
G01 X161.6588
G01 Z-2.5000
G01 Z-4.5000 F180
G01 X205.0000 F1200
G03 X206.5000 Y37.6017 I-0.0001 J1.5002
G01 Y52.5817
G03 X206.1689 Y53.5219 I-1.5014 J-0.0003
G01 X197.9313 Y64.0479
G03 X195.2545 Y63.2396 I-1.1813 J-0.9245
G01 X195.2500 Y63.1034
G01 Y50.3317
G01 X191.7500
G01 Y64.2750
G01 Z0.0000
G01 Y68.7750
G01 Z-2.5000
G01 Z-4.5000 F180
G01 Y70.9668 F1200
G03 X191.3024 Y72.0358 I-1.5009 J-0.0002
G01 X178.5665 Y84.9135
G03 X176.0029 Y83.9512 I-1.0665 J-1.0548
G01 X176.0000 Y83.8387
G01 Y50.3317
G01 X172.5000
G01 Y88.6260
G03 X171.5435 Y90.0241 I-1.5000 J0.0000
G01 X165.1231 Y92.4782
G01 Z0.0000
G01 X160.9197 Y94.0849
G01 Z-2.5000
G01 Z-4.5000 F180
G01 X158.7856 Y94.9006 F1200
G03 X156.7510 Y93.5533 I-0.5356 J-1.4011
G01 X156.7500 Y50.3317
G01 X153.2500
G01 Y93.4995
G03 X151.1958 Y94.8935 I-1.5002 J-0.0001
G01 X140.8438 Y90.9366
G01 Z0.0000
G01 X138.4644 Y90.0271
G03 X137.5000 Y88.6345 I0.5356 J-1.4011
G01 Y88.4811
G01 Z-2.5000
G01 Z-4.5000 F180
G01 Y50.3317 F1200
G01 X134.0000
G01 Y83.8587
G03 X131.4194 Y84.8993 I-1.5001 J-0.0001
G01 X118.6835 Y72.0216
G03 X118.2548 Y71.0865 I1.0665 J-1.0548
G01 X118.2500 Y70.9468
G01 Y59.9574
G01 Z0.0000
G01 Y55.4574
G01 Z-4.0000
G01 Z-6.0000 F180
G01 Y50.3317 F1200
G01 X114.7500
G01 Y63.1234
G03 X112.0564 Y64.0321 I-1.5001 J-0.0001
G01 X103.8187 Y53.5062
G03 X103.5031 Y52.6777 I1.1813 J-0.9245
G01 X103.5000 Y52.5617
G01 Y37.5817
G01 X103.5075 Y37.4319
G03 X105.0200 Y36.0817 I1.4928 J0.1499
G01 X157.1588
G01 Z0.0000
G01 X161.6588
G01 Z-4.0000
G01 Z-6.0000 F180
G01 X205.0000 F1200
G03 X206.5000 Y37.6017 I-0.0001 J1.5002
G01 Y52.5817
G03 X206.1689 Y53.5219 I-1.5014 J-0.0003
G01 X197.9313 Y64.0479
G03 X195.2545 Y63.2396 I-1.1813 J-0.9245
G01 X195.2500 Y63.1034
G01 Y50.3317
G01 X191.7500
G01 Y64.2750
G01 Z0.0000
G01 Y68.7750
G01 Z-4.0000
G01 Z-6.0000 F180
G01 Y70.9668 F1200
G03 X191.3024 Y72.0358 I-1.5009 J-0.0002
G01 X178.5665 Y84.9135
G03 X176.0029 Y83.9512 I-1.0665 J-1.0548
G01 X176.0000 Y83.8387
G01 Y50.3317
G01 X172.5000
G01 Y88.6260
G03 X171.5435 Y90.0241 I-1.5000 J0.0000
G01 X165.1231 Y92.4782
G01 Z0.0000
G01 X160.9197 Y94.0849
G01 Z-4.0000
G01 Z-6.0000 F180
G01 X158.7856 Y94.9006 F1200
G03 X156.7510 Y93.5533 I-0.5356 J-1.4011
G01 X156.7500 Y50.3317
G01 X153.2500
G01 Y93.4995
G03 X151.1958 Y94.8935 I-1.5002 J-0.0001
G01 X140.8438 Y90.9366
G01 Z0.0000
G01 X138.4644 Y90.0271
G03 X137.5000 Y88.6345 I0.5356 J-1.4011
G01 Y88.4811
G01 Z-4.0000
G01 Z-6.0000 F180
G01 Y50.3317 F1200
G01 X134.0000
G01 Y83.8587
G03 X131.4194 Y84.8993 I-1.5001 J-0.0001
G01 X118.6835 Y72.0216
G03 X118.2548 Y71.0865 I1.0665 J-1.0548
G01 X118.2500 Y70.9468
G01 Y59.9574
G01 Z0.0000
G01 Y55.4574
G01 Z-5.5000
G01 Z-7.0000 F180
G01 Y50.3317 F1200
G01 X114.7500
G01 Y63.1234
G03 X112.0564 Y64.0321 I-1.5001 J-0.0001
G01 X103.8187 Y53.5062
G03 X103.5031 Y52.6777 I1.1813 J-0.9245
G01 X103.5000 Y52.5617
G01 Y37.5817
G01 X103.5075 Y37.4319
G03 X105.0200 Y36.0817 I1.4928 J0.1499
G01 X157.1588
G01 Z0.0000
G01 X161.6588
G01 Z-5.5000
G01 Z-7.0000 F180
G01 X205.0000 F1200
G03 X206.5000 Y37.6017 I-0.0001 J1.5002
G01 Y52.5817
G03 X206.1689 Y53.5219 I-1.5014 J-0.0003
G01 X197.9313 Y64.0479
G03 X195.2545 Y63.2396 I-1.1813 J-0.9245
G01 X195.2500 Y63.1034
G01 Y50.3317
G01 X191.7500
G01 Y64.2750
G01 Z0.0000
G01 Y68.7750
G01 Z-5.5000
G01 Z-7.0000 F180
G01 Y70.9668 F1200
G03 X191.3024 Y72.0358 I-1.5009 J-0.0002
G01 X178.5665 Y84.9135
G03 X176.0029 Y83.9512 I-1.0665 J-1.0548
G01 X176.0000 Y83.8387
G01 Y50.3317
G01 X172.5000
G01 Y88.6260
G03 X171.5435 Y90.0241 I-1.5000 J0.0000
G01 X165.1231 Y92.4782
G01 Z0.0000
G01 X160.9197 Y94.0849
G01 Z-5.5000
G01 Z-7.0000 F180
G01 X158.7856 Y94.9006 F1200
G03 X156.7510 Y93.5533 I-0.5356 J-1.4011
G01 X156.7500 Y50.3317
G01 X153.2500
G01 Y93.4995
G03 X151.1958 Y94.8935 I-1.5002 J-0.0001
G01 X140.8438 Y90.9366
G01 Z0.0000
G01 X138.4644 Y90.0271
G03 X137.5000 Y88.6345 I0.5356 J-1.4011
G01 Y88.4811
G01 Z-5.5000
G01 Z-7.0000 F180
G01 Y50.3317 F1200
G01 X134.0000
G01 Y83.8587
G03 X131.4194 Y84.8993 I-1.5001 J-0.0001
G01 X118.6835 Y72.0216
G03 X118.2548 Y71.0865 I1.0665 J-1.0548
G01 X118.2500 Y70.9468
G01 Y59.9574
G01 Z0.0000
G01 Y55.4574
G01 Z5.0000


;No. 10: Part 11
G01 X115.9299 Y12.7500 Z5.0000
G01 Z0.5000
G01 Z-1.5000 F180
G01 X114.7500 F1200
G01 Y19.5296
G03 X112.5106 Y20.8348 I-1.5001 J-0.0001
G01 X104.2781 Y16.3149
G03 X103.5035 Y15.1030 I0.7219 J-1.3149
G01 X103.5000 Y14.9800
G01 Y0.0000
G01 X103.5075 Y-0.1498
G03 X105.0200 Y-1.5000 I1.4928 J0.1499
G01 X139.7264
G01 Z0.0000
G01 X144.2264
G01 Z-1.5000 F180
G01 X205.0000 F1200
G03 X206.5000 Y0.0200 I-0.0001 J1.5002
G01 Y11.0345
G01 Z0.0000
G01 Y15.0000
G03 X206.4040 Y15.5229 I-1.4366 J0.0064
G01 Z-1.5000 F180
G03 X205.7044 Y16.3245 I-1.3953 J-0.5117 F1200
G01 X197.4719 Y20.8445
G03 X195.2540 Y19.6389 I-0.7219 J-1.3149
G01 X195.2500 Y19.5096
G01 Y12.7500
G01 X191.7500
G01 Y22.8998
G03 X190.8294 Y24.2835 I-1.5004 J-0.0001
G01 X178.0977 Y29.8150
G03 X176.0049 Y28.5601 I-0.5977 J-1.3758
G01 X176.0000 Y28.4192
G01 Y12.7500
G01 X172.5000
G01 Y15.0953
G01 Z0.0000
G01 Y19.5953
G01 Z-1.5000 F180
G01 Y30.4876 F1200
G03 X171.2234 Y31.9710 I-1.5003 J-0.0001
G01 X158.4931 Y34.0619
G03 X156.7508 Y32.6321 I-0.2431 J-1.4802
G01 X156.7500 Y12.7500
G01 X153.2500
G01 Y32.5817
G03 X151.6290 Y34.0749 I-1.4969 J0.0015
G01 Z0.0000
G01 X151.5567 Y34.0692
G01 X151.4872 Y34.0586
G01 X147.1877 Y33.3525
G01 Z-1.5000 F180
G01 X138.7569 Y31.9678 F1200
G03 X137.5000 Y30.4996 I0.2431 J-1.4802
G01 Y12.7500
G01 X134.0000
G01 Y28.4392
G03 X131.8839 Y29.8070 I-1.5001 J-0.0001
G01 X119.1523 Y24.2756
G03 X118.2528 Y22.9912 I0.5977 J-1.3758
G01 X118.2500 Y22.8798
G01 Y14.9299
G01 Z0.0000
G01 Y12.7500
G01 X115.9299
G01 Z-1.0000
G01 Z-3.0000 F180
G01 X114.7500 F1200
G01 Y19.5296
G03 X112.5106 Y20.8348 I-1.5001 J-0.0001
G01 X104.2781 Y16.3149
G03 X103.5035 Y15.1030 I0.7219 J-1.3149
G01 X103.5000 Y14.9800
G01 Y0.0000
G01 X103.5075 Y-0.1498
G03 X105.0200 Y-1.5000 I1.4928 J0.1499
G01 X139.7264
G01 Z0.0000
G01 X144.2264
G01 Z-1.0000
G01 Z-3.0000 F180
G01 X205.0000 F1200
G03 X206.5000 Y0.0200 I-0.0001 J1.5002
G01 Y11.0345
G01 Z0.0000
G01 Y15.0000
G03 X206.4040 Y15.5229 I-1.4366 J0.0064
G01 Z-1.0000
G01 Z-3.0000 F180
G03 X205.7044 Y16.3245 I-1.3953 J-0.5117 F1200
G01 X197.4719 Y20.8445
G03 X195.2540 Y19.6389 I-0.7219 J-1.3149
G01 X195.2500 Y19.5096
G01 Y12.7500
G01 X191.7500
G01 Y22.8998
G03 X190.8294 Y24.2835 I-1.5004 J-0.0001
G01 X178.0977 Y29.8150
G03 X176.0049 Y28.5601 I-0.5977 J-1.3758
G01 X176.0000 Y28.4192
G01 Y12.7500
G01 X172.5000
G01 Y15.0953
G01 Z0.0000
G01 Y19.5953
G01 Z-1.0000
G01 Z-3.0000 F180
G01 Y30.4876 F1200
G03 X171.2234 Y31.9710 I-1.5003 J-0.0001
G01 X158.4931 Y34.0619
G03 X156.7508 Y32.6321 I-0.2431 J-1.4802
G01 X156.7500 Y12.7500
G01 X153.2500
G01 Y32.5817
G03 X151.6290 Y34.0749 I-1.4969 J0.0015
G01 Z0.0000
G01 X151.5567 Y34.0692
G01 X151.4872 Y34.0586
G01 X147.1877 Y33.3525
G01 Z-1.0000
G01 Z-3.0000 F180
G01 X138.7569 Y31.9678 F1200
G03 X137.5000 Y30.4996 I0.2431 J-1.4802
G01 Y12.7500
G01 X134.0000
G01 Y28.4392
G03 X131.8839 Y29.8070 I-1.5001 J-0.0001
G01 X119.1523 Y24.2756
G03 X118.2528 Y22.9912 I0.5977 J-1.3758
G01 X118.2500 Y22.8798
G01 Y14.9299
G01 Z0.0000
G01 Y12.7500
G01 X115.9299
G01 Z-2.5000
G01 Z-4.5000 F180
G01 X114.7500 F1200
G01 Y19.5296
G03 X112.5106 Y20.8348 I-1.5001 J-0.0001
G01 X104.2781 Y16.3149
G03 X103.5035 Y15.1030 I0.7219 J-1.3149
G01 X103.5000 Y14.9800
G01 Y0.0000
G01 X103.5075 Y-0.1498
G03 X105.0200 Y-1.5000 I1.4928 J0.1499
G01 X139.7264
G01 Z0.0000
G01 X144.2264
G01 Z-2.5000
G01 Z-4.5000 F180
G01 X205.0000 F1200
G03 X206.5000 Y0.0200 I-0.0001 J1.5002
G01 Y11.0345
G01 Z0.0000
G01 Y15.0000
G03 X206.4040 Y15.5229 I-1.4366 J0.0064
G01 Z-2.5000
G01 Z-4.5000 F180
G03 X205.7044 Y16.3245 I-1.3953 J-0.5117 F1200
G01 X197.4719 Y20.8445
G03 X195.2540 Y19.6389 I-0.7219 J-1.3149
G01 X195.2500 Y19.5096
G01 Y12.7500
G01 X191.7500
G01 Y22.8998
G03 X190.8294 Y24.2835 I-1.5004 J-0.0001
G01 X178.0977 Y29.8150
G03 X176.0049 Y28.5601 I-0.5977 J-1.3758
G01 X176.0000 Y28.4192
G01 Y12.7500
G01 X172.5000
G01 Y15.0953
G01 Z0.0000
G01 Y19.5953
G01 Z-2.5000
G01 Z-4.5000 F180
G01 Y30.4876 F1200
G03 X171.2234 Y31.9710 I-1.5003 J-0.0001
G01 X158.4931 Y34.0619
G03 X156.7508 Y32.6321 I-0.2431 J-1.4802
G01 X156.7500 Y12.7500
G01 X153.2500
G01 Y32.5817
G03 X151.6290 Y34.0749 I-1.4969 J0.0015
G01 Z0.0000
G01 X151.5567 Y34.0692
G01 X151.4872 Y34.0586
G01 X147.1877 Y33.3525
G01 Z-2.5000
G01 Z-4.5000 F180
G01 X138.7569 Y31.9678 F1200
G03 X137.5000 Y30.4996 I0.2431 J-1.4802
G01 Y12.7500
G01 X134.0000
G01 Y28.4392
G03 X131.8839 Y29.8070 I-1.5001 J-0.0001
G01 X119.1523 Y24.2756
G03 X118.2528 Y22.9912 I0.5977 J-1.3758
G01 X118.2500 Y22.8798
G01 Y14.9299
G01 Z0.0000
G01 Y12.7500
G01 X115.9299
G01 Z-4.0000
G01 Z-6.0000 F180
G01 X114.7500 F1200
G01 Y19.5296
G03 X112.5106 Y20.8348 I-1.5001 J-0.0001
G01 X104.2781 Y16.3149
G03 X103.5035 Y15.1030 I0.7219 J-1.3149
G01 X103.5000 Y14.9800
G01 Y0.0000
G01 X103.5075 Y-0.1498
G03 X105.0200 Y-1.5000 I1.4928 J0.1499
G01 X139.7264
G01 Z0.0000
G01 X144.2264
G01 Z-4.0000
G01 Z-6.0000 F180
G01 X205.0000 F1200
G03 X206.5000 Y0.0200 I-0.0001 J1.5002
G01 Y11.0345
G01 Z0.0000
G01 Y15.0000
G03 X206.4040 Y15.5229 I-1.4366 J0.0064
G01 Z-4.0000
G01 Z-6.0000 F180
G03 X205.7044 Y16.3245 I-1.3953 J-0.5117 F1200
G01 X197.4719 Y20.8445
G03 X195.2540 Y19.6389 I-0.7219 J-1.3149
G01 X195.2500 Y19.5096
G01 Y12.7500
G01 X191.7500
G01 Y22.8998
G03 X190.8294 Y24.2835 I-1.5004 J-0.0001
G01 X178.0977 Y29.8150
G03 X176.0049 Y28.5601 I-0.5977 J-1.3758
G01 X176.0000 Y28.4192
G01 Y12.7500
G01 X172.5000
G01 Y15.0953
G01 Z0.0000
G01 Y19.5953
G01 Z-4.0000
G01 Z-6.0000 F180
G01 Y30.4876 F1200
G03 X171.2234 Y31.9710 I-1.5003 J-0.0001
G01 X158.4931 Y34.0619
G03 X156.7508 Y32.6321 I-0.2431 J-1.4802
G01 X156.7500 Y12.7500
G01 X153.2500
G01 Y32.5817
G03 X151.6290 Y34.0749 I-1.4969 J0.0015
G01 Z0.0000
G01 X151.5567 Y34.0692
G01 X151.4872 Y34.0586
G01 X147.1877 Y33.3525
G01 Z-4.0000
G01 Z-6.0000 F180
G01 X138.7569 Y31.9678 F1200
G03 X137.5000 Y30.4996 I0.2431 J-1.4802
G01 Y12.7500
G01 X134.0000
G01 Y28.4392
G03 X131.8839 Y29.8070 I-1.5001 J-0.0001
G01 X119.1523 Y24.2756
G03 X118.2528 Y22.9912 I0.5977 J-1.3758
G01 X118.2500 Y22.8798
G01 Y14.9299
G01 Z0.0000
G01 Y12.7500
G01 X115.9299
G01 Z-5.5000
G01 Z-7.0000 F180
G01 X114.7500 F1200
G01 Y19.5296
G03 X112.5106 Y20.8348 I-1.5001 J-0.0001
G01 X104.2781 Y16.3149
G03 X103.5035 Y15.1030 I0.7219 J-1.3149
G01 X103.5000 Y14.9800
G01 Y0.0000
G01 X103.5075 Y-0.1498
G03 X105.0200 Y-1.5000 I1.4928 J0.1499
G01 X139.7264
G01 Z0.0000
G01 X144.2264
G01 Z-5.5000
G01 Z-7.0000 F180
G01 X205.0000 F1200
G03 X206.5000 Y0.0200 I-0.0001 J1.5002
G01 Y11.0345
G01 Z0.0000
G01 Y15.0000
G03 X206.4040 Y15.5229 I-1.4366 J0.0064
G01 Z-5.5000
G01 Z-7.0000 F180
G03 X205.7044 Y16.3245 I-1.3953 J-0.5117 F1200
G01 X197.4719 Y20.8445
G03 X195.2540 Y19.6389 I-0.7219 J-1.3149
G01 X195.2500 Y19.5096
G01 Y12.7500
G01 X191.7500
G01 Y22.8998
G03 X190.8294 Y24.2835 I-1.5004 J-0.0001
G01 X178.0977 Y29.8150
G03 X176.0049 Y28.5601 I-0.5977 J-1.3758
G01 X176.0000 Y28.4192
G01 Y12.7500
G01 X172.5000
G01 Y15.0953
G01 Z0.0000
G01 Y19.5953
G01 Z-5.5000
G01 Z-7.0000 F180
G01 Y30.4876 F1200
G03 X171.2234 Y31.9710 I-1.5003 J-0.0001
G01 X158.4931 Y34.0619
G03 X156.7508 Y32.6321 I-0.2431 J-1.4802
G01 X156.7500 Y12.7500
G01 X153.2500
G01 Y32.5817
G03 X151.6290 Y34.0749 I-1.4969 J0.0015
G01 Z0.0000
G01 X151.5567 Y34.0692
G01 X151.4872 Y34.0586
G01 X147.1877 Y33.3525
G01 Z-5.5000
G01 Z-7.0000 F180
G01 X138.7569 Y31.9678 F1200
G03 X137.5000 Y30.4996 I0.2431 J-1.4802
G01 Y12.7500
G01 X134.0000
G01 Y28.4392
G03 X131.8839 Y29.8070 I-1.5001 J-0.0001
G01 X119.1523 Y24.2756
G03 X118.2528 Y22.9912 I0.5977 J-1.3758
G01 X118.2500 Y22.8798
G01 Y14.9299
G01 Z0.0000
G01 Y12.7500
G01 X115.9299
G01 Z5.0000
G01 X0.0000 Y0.0000

M05
