;Project surface
;Created by Estlcam version 10 build 10.013
;Machining time about 00:03:49 hours

G90
M03 S24000
G00 F800
G01 Z5.0000


;No. 1: Part 1
G01 X-1.5000 Y0.0000
G01 Z0.5000
G01 Z-2.0000 F180 S24000
G01 X-1.4925 Y-0.1498 F600
G03 X0.0200 Y-1.5000 I1.4928 J0.1499
G01 X100.0000
G03 X101.5000 Y0.0200 I-0.0001 J1.5002
G01 Y15.0000
G03 X101.1689 Y15.9402 I-1.5014 J-0.0003
G01 X92.9313 Y26.4664
G03 X90.2545 Y25.6582 I-1.1813 J-0.9244
G01 X90.2500 Y25.5220
G01 Y12.7500
G01 X86.7500
G01 Y33.3850
G03 X86.3025 Y34.4540 I-1.5009 J-0.0002
G01 X73.5665 Y47.3318
G03 X71.0029 Y46.3695 I-1.0665 J-1.0548
G01 X71.0000 Y46.2570
G01 Y12.7500
G01 X67.5000
G01 Y51.0440
G03 X66.5435 Y52.4421 I-1.5000 J0.0000
G01 X53.7856 Y57.3191
G03 X51.7510 Y55.9719 I-0.5356 J-1.4011
G01 X51.7500 Y12.7500
G01 X48.2500
G01 Y55.9180
G03 X46.1957 Y57.3120 I-1.5002 J-0.0001
G01 X33.4644 Y52.4451
G03 X32.5000 Y51.0525 I0.5356 J-1.4011
G01 Y12.7500
G01 X29.0000
G01 Y46.2770
G03 X26.4194 Y47.3176 I-1.5001 J-0.0001
G01 X13.6835 Y34.4398
G03 X13.2548 Y33.5047 I1.0665 J-1.0548
G01 X13.2500 Y33.3650
G01 Y12.7500
G01 X9.7500
G01 Y25.5420
G03 X7.0564 Y26.4507 I-1.5001 J-0.0001
G01 X-1.1813 Y15.9244
G03 X-1.4969 Y15.0960 I1.1813 J-0.9244
G01 X-1.5000 Y14.9800
G01 Y0.0000
G01 Z-4.0000 F180
G01 X-1.4925 Y-0.1498 F600
G03 X0.0200 Y-1.5000 I1.4928 J0.1499
G01 X100.0000
G03 X101.5000 Y0.0200 I-0.0001 J1.5002
G01 Y15.0000
G03 X101.1689 Y15.9402 I-1.5014 J-0.0003
G01 X92.9313 Y26.4664
G03 X90.2545 Y25.6582 I-1.1813 J-0.9244
G01 X90.2500 Y25.5220
G01 Y12.7500
G01 X86.7500
G01 Y33.3850
G03 X86.3025 Y34.4540 I-1.5009 J-0.0002
G01 X73.5665 Y47.3318
G03 X71.0029 Y46.3695 I-1.0665 J-1.0548
G01 X71.0000 Y46.2570
G01 Y12.7500
G01 X67.5000
G01 Y51.0440
G03 X66.5435 Y52.4421 I-1.5000 J0.0000
G01 X53.7856 Y57.3191
G03 X51.7510 Y55.9719 I-0.5356 J-1.4011
G01 X51.7500 Y12.7500
G01 X48.2500
G01 Y55.9180
G03 X46.1957 Y57.3120 I-1.5002 J-0.0001
G01 X33.4644 Y52.4451
G03 X32.5000 Y51.0525 I0.5356 J-1.4011
G01 Y12.7500
G01 X29.0000
G01 Y46.2770
G03 X26.4194 Y47.3176 I-1.5001 J-0.0001
G01 X13.6835 Y34.4398
G03 X13.2548 Y33.5047 I1.0665 J-1.0548
G01 X13.2500 Y33.3650
G01 Y12.7500
G01 X9.7500
G01 Y25.5420
G03 X7.0564 Y26.4507 I-1.5001 J-0.0001
G01 X-1.1813 Y15.9244
G03 X-1.4969 Y15.0960 I1.1813 J-0.9244
G01 X-1.5000 Y14.9800
G01 Y0.0000
G01 Z-6.0000 F180
G01 X-1.4925 Y-0.1498 F600
G03 X0.0200 Y-1.5000 I1.4928 J0.1499
G01 X100.0000
G03 X101.5000 Y0.0200 I-0.0001 J1.5002
G01 Y15.0000
G03 X101.1689 Y15.9402 I-1.5014 J-0.0003
G01 X92.9313 Y26.4664
G03 X90.2545 Y25.6582 I-1.1813 J-0.9244
G01 X90.2500 Y25.5220
G01 Y12.7500
G01 X86.7500
G01 Y33.3850
G03 X86.3025 Y34.4540 I-1.5009 J-0.0002
G01 X73.5665 Y47.3318
G03 X71.0029 Y46.3695 I-1.0665 J-1.0548
G01 X71.0000 Y46.2570
G01 Y12.7500
G01 X67.5000
G01 Y51.0440
G03 X66.5435 Y52.4421 I-1.5000 J0.0000
G01 X53.7856 Y57.3191
G03 X51.7510 Y55.9719 I-0.5356 J-1.4011
G01 X51.7500 Y12.7500
G01 X48.2500
G01 Y55.9180
G03 X46.1957 Y57.3120 I-1.5002 J-0.0001
G01 X33.4644 Y52.4451
G03 X32.5000 Y51.0525 I0.5356 J-1.4011
G01 Y12.7500
G01 X29.0000
G01 Y46.2770
G03 X26.4194 Y47.3176 I-1.5001 J-0.0001
G01 X13.6835 Y34.4398
G03 X13.2548 Y33.5047 I1.0665 J-1.0548
G01 X13.2500 Y33.3650
G01 Y12.7500
G01 X9.7500
G01 Y25.5420
G03 X7.0564 Y26.4507 I-1.5001 J-0.0001
G01 X-1.1813 Y15.9244
G03 X-1.4969 Y15.0960 I1.1813 J-0.9244
G01 X-1.5000 Y14.9800
G01 Y0.0000
G01 Z-7.0000 F180
G01 X-1.4925 Y-0.1498 F600
G03 X0.0200 Y-1.5000 I1.4928 J0.1499
G01 X100.0000
G03 X101.5000 Y0.0200 I-0.0001 J1.5002
G01 Y15.0000
G03 X101.1689 Y15.9402 I-1.5014 J-0.0003
G01 X92.9313 Y26.4664
G03 X90.2545 Y25.6582 I-1.1813 J-0.9244
G01 X90.2500 Y25.5220
G01 Y12.7500
G01 X86.7500
G01 Y33.3850
G03 X86.3025 Y34.4540 I-1.5009 J-0.0002
G01 X73.5665 Y47.3318
G03 X71.0029 Y46.3695 I-1.0665 J-1.0548
G01 X71.0000 Y46.2570
G01 Y12.7500
G01 X67.5000
G01 Y51.0440
G03 X66.5435 Y52.4421 I-1.5000 J0.0000
G01 X53.7856 Y57.3191
G03 X51.7510 Y55.9719 I-0.5356 J-1.4011
G01 X51.7500 Y12.7500
G01 X48.2500
G01 Y55.9180
G03 X46.1957 Y57.3120 I-1.5002 J-0.0001
G01 X33.4644 Y52.4451
G03 X32.5000 Y51.0525 I0.5356 J-1.4011
G01 Y12.7500
G01 X29.0000
G01 Y46.2770
G03 X26.4194 Y47.3176 I-1.5001 J-0.0001
G01 X13.6835 Y34.4398
G03 X13.2548 Y33.5047 I1.0665 J-1.0548
G01 X13.2500 Y33.3650
G01 Y12.7500
G01 X9.7500
G01 Y25.5420
G03 X7.0564 Y26.4507 I-1.5001 J-0.0001
G01 X-1.1813 Y15.9244
G03 X-1.4969 Y15.0960 I1.1813 J-0.9244
G01 X-1.5000 Y14.9800
G01 Y0.0000
G01 Z5.0000
G01 X0.0000

M05
